luts/lut_arcsinh_stretch_5.cube
TITLE "Arcsinh_Stretch_5"
LUT_1D_SIZE 256
DOMAIN_MIN 0.0 0.0 0.0
DOMAIN_MAX 1.0 1.0 1.0
0.0 0.0 0.0
0.019591791638110364 0.019591791638110364 0.019591791638110364
0.03908811718265282 0.03908811718265282 0.03908811718265282
0.05839761737047085 0.05839761737047085 0.05839761737047085
0.07743666948039628 0.07743666948039628 0.07743666948039628
0.09613216757288809 0.09613216757288809 0.09613216757288809
0.1144232540312749 0.1144232540312749 0.1144232540312749
0.13226198983321627 0.13226198983321627 0.13226198983321627
0.14961310212583726 0.14961310212583726 0.14961310212583726
0.16645303667333217 0.16645303667333217 0.16645303667333217
0.18276856808052022 0.18276856808052022 0.18276856808052022
0.19855519801216678 0.19855519801216678 0.19855519801216678
0.21381552251098992 0.21381552251098992 0.21381552251098992
0.22855769295490141 0.22855769295490141 0.22855769295490141
0.24279404371955968 0.24279404371955968 0.24279404371955968
0.25653991920828567 0.25653991920828567 0.25653991920828567
0.26981270477768093 0.26981270477768093 0.26981270477768093
0.282631048737999 0.282631048737999 0.282631048737999
0.2950142535139859 0.2950142535139859 0.2950142535139859
0.30698181064437635 0.30698181064437635 0.30698181064437635
0.31855305443434984 0.31855305443434984 0.31855305443434984
0.3297469111712001 0.3297469111712001 0.3297469111712001
0.3405817237999804 0.3405817237999804 0.3405817237999804
0.3510751351688526 0.3510751351688526 0.3510751351688526
0.3612440160181141 0.3612440160181141 0.3612440160181141
0.3711044266180396 0.3711044266180396 0.3711044266180396
0.38067160329191946 0.38067160329191946 0.38067160329191946
0.38995996299212965 0.38995996299212965 0.38995996299212965
0.3989831206630969 0.3989831206630969 0.3989831206630969
0.40775391537428 0.40775391537428 0.40775391537428
0.41628444219031857 0.41628444219031857 0.41628444219031857
0.42458608751274585 0.42458608751274585 0.42458608751274585
0.4326695662208036 0.4326695662208036 0.4326695662208036
0.44054495939403443 0.44054495939403443 0.44054495939403443
0.4482217517461608 0.4482217517461608 0.4482217517461608
0.45570886816230366 0.45570886816230366 0.45570886816230366
0.4630147089289275 0.4630147089289275 0.4630147089289275
0.47014718339308764 0.47014718339308764 0.47014718339308764
0.4771137418963534 0.4771137418963534 0.4771137418963534
0.48392140590833377 0.48392140590833377 0.48392140590833377
0.49057679634208906 0.49057679634208906 0.49057679634208906
0.4970861600743241 0.4970861600743241 0.4970861600743241
0.5034553947212724 0.5034553947212724 0.5034553947212724
0.509690071739811 0.509690071739811 0.509690071739811
0.5157954579349971 0.5157954579349971 0.5157954579349971
0.5217765354617577 0.5217765354617577 0.5217765354617577
0.5276380204112748 0.5276380204112748 0.5276380204112748
0.5333843800727659 0.5333843800727659 0.5333843800727659
0.5390198489596458 0.5390198489596458 0.5390198489596458
0.544548443686068 0.544548443686068 0.544548443686068
0.549973976776031 0.549973976776031 0.549973976776031
0.5553000694829173 0.5553000694829173 0.5553000694829173
0.5605301636927585 0.5605301636927585 0.5605301636927585
0.565667532979845 0.565667532979845 0.565667532979845
0.5707152928786707 0.5707152928786707 0.5707152928786707
0.5756764104316875 0.5756764104316875 0.5756764104316875
0.580553713067999 0.580553713067999 0.580553713067999
0.5853498968640033 0.5853498968640033 0.5853498968640033
0.5900675342330974 0.5900675342330974 0.5900675342330974
0.5947090810879037 0.5947090810879037 0.5947090810879037
0.5992768835150745 0.5992768835150745 0.5992768835150745
0.60377318399957 0.60377318399957 0.60377318399957
0.608200127232362 0.608200127232362 0.608200127232362
0.6125597655328201 0.6125597655328201 0.6125597655328201
0.6168540639145265 0.6168540639145265 0.6168540639145265
0.6210849048209749 0.6210849048209749 0.6210849048209749
0.6252540925554891 0.6252540925554891 0.6252540925554891
0.6293633574277524 0.6293633574277524 0.6293633574277524
0.6334143596375605 0.6334143596375605 0.6334143596375605
0.6374086929147714 0.6374086929147714 0.6374086929147714
0.6413478879329219 0.6413478879329219 0.6413478879329219
0.645233415512611 0.645233415512611 0.645233415512611
0.6490666896294852 0.6490666896294852 0.6490666896294852
0.652849070240499 0.652849070240499 0.652849070240499
0.6565818659410774 0.6565818659410774 0.6565818659410774
0.6602663364648178 0.6602663364648178 0.6602663364648178
0.6639036950364913 0.6639036950364913 0.6639036950364913
0.667495110588274 0.667495110588274 0.667495110588274
0.6710417098483971 0.6710417098483971 0.6710417098483971
0.6745445793107069 0.6745445793107069 0.6745445793107069
0.6780047670930002 0.6780047670930002 0.6780047670930002
0.6814232846914112 0.6814232846914112 0.6814232846914112
0.6848011086375986 0.6848011086375986 0.6848011086375986
0.6881391820649831 0.6881391820649831 0.6881391820649831
0.6914384161898376 0.6914384161898376 0.6914384161898376
0.6946996917126128 0.6946996917126128 0.6946996917126128
0.6979238601444985 0.6979238601444985 0.6979238601444985
0.7011117450638675 0.7011117450638675 0.7011117450638675
0.7042641433069199 0.7042641433069199 0.7042641433069199
0.7073818260965501 0.7073818260965501 0.7073818260965501
0.7104655401131744 0.7104655401131744 0.7104655401131744
0.7135160085110064 0.7135160085110064 0.7135160085110064
0.7165339318830262 0.7165339318830262 0.7165339318830262
0.7195199891776731 0.7195199891776731 0.7195199891776731
0.7224748385700857 0.7224748385700857 0.7224748385700857
0.7253991182905276 0.7253991182905276 0.7253991182905276
0.7282934474124648 0.7282934474124648 0.7282934474124648
0.7311584266025912 0.7311584266025912 0.7311584266025912
0.7339946388349635 0.7339946388349635 0.7339946388349635
0.736802650071253 0.736802650071253 0.736802650071253
0.7395830099090038 0.7395830099090038 0.7395830099090038
0.7423362521996618 0.7423362521996618 0.7423362521996618
0.74506289563803 0.74506289563803 0.74506289563803
0.7477634443247023 0.7477634443247023 0.7477634443247023
0.75043838830293 0.75043838830293 0.75043838830293
0.7530882040712882 0.7530882040712882 0.7530882040712882
0.7557133550734241 0.7557133550734241 0.7557133550734241
0.7583142921660928 0.7583142921660928 0.7583142921660928
0.7608914540666126 0.7608914540666126 0.7608914540666126
0.7634452677808048 0.7634452677808048 0.7634452677808048
0.7659761490124214 0.7659761490124214 0.7659761490124214
0.7684845025550021 0.7684845025550021 0.7684845025550021
0.7709707226670495 0.7709707226670495 0.7709707226670495
0.7734351934313604 0.7734351934313604 0.7734351934313604
0.7758782890992995 0.7758782890992995 0.7758782890992995
0.7783003744207625 0.7783003744207625 0.7783003744207625
0.7807018049605265 0.7807018049605265 0.7807018049605265
0.7830829274016535 0.7830829274016535 0.7830829274016535
0.7854440798365704 0.7854440798365704 0.7854440798365704
0.7877855920464161 0.7877855920464161 0.7877855920464161
0.790107785769214 0.790107785769214 0.790107785769214
0.7924109749574004 0.7924109749574004 0.7924109749574004
0.794695466025202 0.794695466025202 0.794695466025202
0.7969615580863415 0.7969615580863415 0.7969615580863415
0.7992095431825127 0.7992095431825127 0.7992095431825127
0.801439706503053 0.801439706503053 0.801439706503053
0.8036523265962107 0.8036523265962107 0.8036523265962107
0.8058476755723897 0.8058476755723897 0.8058476755723897
0.8080260192997303 0.8080260192997303 0.8080260192997303
0.8101876175923685 0.8101876175923685 0.8101876175923685
0.8123327243916979 0.8123327243916979 0.8123327243916979
0.8144615879409421 0.8144615879409421 0.8144615879409421
0.8165744509533293 0.8165744509533293 0.8165744509533293
0.818671550774146 0.818671550774146 0.818671550774146
0.8207531195369357 0.8207531195369357 0.8207531195369357
0.8228193843140904 0.8228193843140904 0.8228193843140904
0.8248705672620744 0.8248705672620744 0.8248705672620744
0.826906885761508 0.826906885761508 0.826906885761508
0.8289285525523234 0.8289285525523234 0.8289285525523234
0.8309357758642024 0.8309357758642024 0.8309357758642024
0.8329287595424879 0.8329287595424879 0.8329287595424879
0.8349077031697554 0.8349077031697554 0.8349077031697554
0.836872802183224 0.836872802183224 0.836872802183224
0.8388242479881739 0.8388242479881739 0.8388242479881739
0.8407622280675305 0.8407622280675305 0.8407622280675305
0.8426869260877718 0.8426869260877718 0.8426869260877718
0.8445985220013024 0.8445985220013024 0.8445985220013024
0.8464971921454346 0.8464971921454346 0.8464971921454346
0.8483831093381116 0.8483831093381116 0.8483831093381116
0.8502564429704976 0.8502564429704976 0.8502564429704976
0.8521173590965583 0.8521173590965583 0.8521173590965583
0.8539660205197465 0.8539660205197465 0.8539660205197465
0.8558025868769045 0.8558025868769045 0.8558025868769045
0.8576272147194903 0.8576272147194903 0.8576272147194903
0.859440057592226 0.859440057592226 0.859440057592226
0.8612412661092685 0.8612412661092685 0.8612412661092685
0.8630309880279946 0.8630309880279946 0.8630309880279946
0.8648093683204867 0.8648093683204867 0.8648093683204867
0.8665765492428077 0.8665765492428077 0.8665765492428077
0.8683326704021441 0.8683326704021441 0.8683326704021441
0.8700778688218959 0.8700778688218959 0.8700778688218959
0.8718122790047866 0.8718122790047866 0.8718122790047866
0.8735360329940681 0.8735360329940681 0.8735360329940681
0.8752492604328843 0.8752492604328843 0.8752492604328843
0.8769520886218636 0.8769520886218636 0.8769520886218636
0.8786446425749992 0.8786446425749992 0.8786446425749992
0.8803270450738804 0.8803270450738804 0.8803270450738804
0.8819994167203323 0.8819994167203323 0.8819994167203323
0.8836618759875181 0.8836618759875181 0.8836618759875181
0.8853145392695585 0.8853145392695585 0.8853145392695585
0.8869575209297179 0.8869575209297179 0.8869575209297179
0.8885909333472106 0.8885909333472106 0.8885909333472106
0.8902148869626682 0.8902148869626682 0.8902148869626682
0.8918294903223175 0.8918294903223175 0.8918294903223175
0.8934348501209123 0.8934348501209123 0.8934348501209123
0.8950310712434596 0.8950310712434596 0.8950310712434596
0.8966182568057802 0.8966182568057802 0.8966182568057802
0.8981965081939444 0.8981965081939444 0.8981965081939444
0.8997659251026181 0.8997659251026181 0.8997659251026181
0.9013266055723552 0.9013266055723552 0.9013266055723552
0.9028786460258725 0.9028786460258725 0.9028786460258725
0.9044221413033375 0.9044221413033375 0.9044221413033375
0.9059571846967032 0.9059571846967032 0.9059571846967032
0.9074838679831192 0.9074838679831192 0.9074838679831192
0.90900228145745 0.90900228145745 0.90900228145745
0.9105125139639269 0.9105125139639269 0.9105125139639269
0.9120146529269632 0.9120146529269632 0.9120146529269632
0.9135087843811571 0.9135087843811571 0.9135087843811571
0.9149949930005098 0.9149949930005098 0.9149949930005098
0.9164733621268802 0.9164733621268802 0.9164733621268802
0.9179439737977035 0.9179439737977035 0.9179439737977035
0.9194069087729944 0.9194069087729944 0.9194069087729944
0.9208622465616559 0.9208622465616559 0.9208622465616559
0.9223100654471181 0.9223100654471181 0.9223100654471181
0.9237504425123239 0.9237504425123239 0.9237504425123239
0.9251834536640829 0.9251834536640829 0.9251834536640829
0.9266091736568145 0.9266091736568145 0.9266091736568145
0.9280276761156938 0.9280276761156938 0.9280276761156938
0.9294390335592223 0.9294390335592223 0.9294390335592223
0.9308433174212399 0.9308433174212399 0.9308433174212399
0.9322405980723909 0.9322405980723909 0.9322405980723909
0.9336309448410666 0.9336309448410666 0.9336309448410666
0.9350144260338327 0.9350144260338327 0.9350144260338327
0.9363911089553625 0.9363911089553625 0.9363911089553625
0.9377610599278866 0.9377610599278866 0.9377610599278866
0.9391243443101732 0.9391243443101732 0.9391243443101732
0.9404810265160555 0.9404810265160555 0.9404810265160555
0.9418311700325152 0.9418311700325152 0.9418311700325152
0.9431748374373371 0.9431748374373371 0.9431748374373371
0.9445120904163465 0.9445120904163465 0.9445120904163465
0.9458429897802406 0.9458429897802406 0.9458429897802406
0.9471675954810262 0.9471675954810262 0.9471675954810262
0.9484859666280737 0.9484859666280737 0.9484859666280737
0.949798161503799 0.949798161503799 0.949798161503799
0.9511042375789825 0.9511042375789825 0.9511042375789825
0.9524042515277364 0.9524042515277364 0.9524042515277364
0.9536982592421287 0.9536982592421287 0.9536982592421287
0.9549863158464752 0.9549863158464752 0.9549863158464752
0.956268475711305 0.956268475711305 0.956268475711305
0.9575447924670133 0.9575447924670133 0.9575447924670133
0.958815319017205 0.958815319017205 0.958815319017205
0.9600801075517404 0.9600801075517404 0.9600801075517404
0.9613392095594903 0.9613392095594903 0.9613392095594903
0.9625926758408078 0.9625926758408078 0.9625926758408078
0.9638405565197243 0.9638405565197243 0.9638405565197243
0.9650829010558779 0.9650829010558779 0.9650829010558779
0.9663197582561797 0.9663197582561797 0.9663197582561797
0.9675511762862261 0.9675511762862261 0.9675511762862261
0.9687772026814637 0.9687772026814637 0.9687772026814637
0.9699978843581117 0.9699978843581117 0.9699978843581117
0.9712132676238496 0.9712132676238496 0.9712132676238496
0.9724233981882768 0.9724233981882768 0.9724233981882768
0.973628321173147 0.973628321173147 0.973628321173147
0.9748280811223866 0.9748280811223866 0.9748280811223866
0.9760227220119 0.9760227220119 0.9760227220119
0.9772122872591689 0.9772122872591689 0.9772122872591689
0.9783968197326492 0.9783968197326492 0.9783968197326492
0.9795763617609732 0.9795763617609732 0.9795763617609732
0.9807509551419569 0.9807509551419569 0.9807509551419569
0.9819206411514244 0.9819206411514244 0.9819206411514244
0.9830854605518474 0.9830854605518474 0.9830854605518474
0.984245453600808 0.984245453600808 0.984245453600808
0.9854006600592877 0.9854006600592877 0.9854006600592877
0.9865511191997877 0.9865511191997877 0.9865511191997877
0.9876968698142843 0.9876968698142843 0.9876968698142843
0.9888379502220223 0.9888379502220223 0.9888379502220223
0.9899743982771527 0.9899743982771527 0.9899743982771527
0.9911062513762162 0.9911062513762162 0.9911062513762162
0.9922335464654771 0.9922335464654771 0.9922335464654771
0.9933563200481108 0.9933563200481108 0.9933563200481108
0.9944746081912501 0.9944746081912501 0.9944746081912501
0.9955884465328904 0.9955884465328904 0.9955884465328904
0.9966978702886597 0.9966978702886597 0.9966978702886597
0.997802914258457 0.997802914258457 0.997802914258457
0.9989036128329586 0.9989036128329586 0.9989036128329586
1.0 1.0 1.0