luts/lut_arcsinh_stretch_105.cube
TITLE "Arcsinh_Stretch_105"
LUT_1D_SIZE 256
DOMAIN_MIN 0.0 0.0 0.0
DOMAIN_MAX 1.0 1.0 1.0
0.0 0.0 0.0
0.2486961498730785 0.2486961498730785 0.2486961498730785
0.34046271872187317 0.34046271872187317 0.34046271872187317
0.39518908743082654 0.39518908743082654 0.39518908743082654
0.4342001330616031 0.4342001330616031 0.4342001330616031
0.46451549354175353 0.46451549354175353 0.46451549354175353
0.48930775573881463 0.48930775573881463 0.48930775573881463
0.5102803120374919 0.5102803120374919 0.5102803120374919
0.5284535131834559 0.5284535131834559 0.5284535131834559
0.5444869066292054 0.5444869066292054 0.5444869066292054
0.5588314524182434 0.5588314524182434 0.5588314524182434
0.5718091104974096 0.5718091104974096 0.5718091104974096
0.583657768389147 0.583657768389147 0.583657768389147
0.5945581734206936 0.5945581734206936 0.5945581734206936
0.6046508786357857 0.6046508786357857 0.6046508786357857
0.6140473395695785 0.6140473395695785 0.6140473395695785
0.6228374283894434 0.6228374283894434 0.6228374283894434
0.6310946693408069 0.6310946693408069 0.6310946693408069
0.6388799773778423 0.6388799773778423 0.6388799773778423
0.6462443857699082 0.6462443857699082 0.6462443857699082
0.653231073960897 0.653231073960897 0.653231073960897
0.6598769005994092 0.6598769005994092 0.6598769005994092
0.6662135799009056 0.6662135799009056 0.6662135799009056
0.6722685964965925 0.6722685964965925 0.6722685964965925
0.6780659255660652 0.6780659255660652 0.6780659255660652
0.6836266059574003 0.6836266059574003 0.6836266059574003
0.6889692008979393 0.6889692008979393 0.6889692008979393
0.6941101717550867 0.6941101717550867 0.6941101717550867
0.6990641838236641 0.6990641838236641 0.6990641838236641
0.7038443584539497 0.7038443584539497 0.7038443584539497
0.7084624824369576 0.7084624824369576 0.7084624824369576
0.712929183057371 0.712929183057371 0.712929183057371
0.7172540753550798 0.7172540753550798 0.7172540753550798
0.721445886727115 0.721445886727115 0.721445886727115
0.7255125629292084 0.7255125629292084 0.7255125629292084
0.7294613587124201 0.7294613587124201 0.7294613587124201
0.7332989156921778 0.7332989156921778 0.7332989156921778
0.7370313295488473 0.7370313295488473 0.7370313295488473
0.7406642082670593 0.7406642082670593 0.7406642082670593
0.7442027228105488 0.7442027228105488 0.7442027228105488
0.7476516513817065 0.7476516513817065 0.7476516513817065
0.7510154182163792 0.7510154182163792 0.7510154182163792
0.7542981277041013 0.7542981277041013 0.7542981277041013
0.7575035944937779 0.7575035944937779 0.7575035944937779
0.7606353701386103 0.7606353701386103 0.7606353701386103
0.7636967667469364 0.7636967667469364 0.7636967667469364
0.7666908780338485 0.7666908780338485 0.7666908780338485
0.769620598109007 0.769620598109007 0.769620598109007
0.7724886382866308 0.7724886382866308 0.7724886382866308
0.775297542162366 0.775297542162366 0.775297542162366
0.7780496991671255 0.7780496991671255 0.7780496991671255
0.78074735677887 0.78074735677887 0.78074735677887
0.7833926315486984 0.7833926315486984 0.7833926315486984
0.7859875190767659 0.7859875190767659 0.7859875190767659
0.7885339030558135 0.7885339030558135 0.7885339030558135
0.7910335634849683 0.7910335634849683 0.7910335634849683
0.7934881841435153 0.7934881841435153 0.7934881841435153
0.7958993594032389 0.7958993594032389 0.7958993594032389
0.7982686004483537 0.7982686004483537 0.7982686004483537
0.8005973409637892 0.8005973409637892 0.8005973409637892
0.8028869423454437 0.8028869423454437 0.8028869423454437
0.8051386984798174 0.8051386984798174 0.8051386984798174
0.8073538401350394 0.8073538401350394 0.8073538401350394
0.8095335390005958 0.8095335390005958 0.8095335390005958
0.8116789114089555 0.8116789114089555 0.8116789114089555
0.8137910217686855 0.8137910217686855 0.8137910217686855
0.8158708857354845 0.8158708857354845 0.8158708857354845
0.817919473144785 0.817919473144785 0.817919473144785
0.8199377107271153 0.8199377107271153 0.8199377107271153
0.8219264846252541 0.8219264846252541 0.8219264846252541
0.8238866427302861 0.8238866427302861 0.8238866427302861
0.8258189968519762 0.8258189968519762 0.8258189968519762
0.8277243247373623 0.8277243247373623 0.8277243247373623
0.8296033719501315 0.8296033719501315 0.8296033719501315
0.8314568536221415 0.8314568536221415 0.8314568536221415
0.8332854560873888 0.8332854560873888 0.8332854560873888
0.8350898384077616 0.8350898384077616 0.8350898384077616
0.8368706337990686 0.8368706337990686 0.8368706337990686
0.8386284509650628 0.8386284509650628 0.8386284509650628
0.8403638753464928 0.8403638753464928 0.8403638753464928
0.8420774702915964 0.8420774702915964 0.8420774702915964
0.8437697781538892 0.8437697781538892 0.8437697781538892
0.8454413213226031 0.8454413213226031 0.8454413213226031
0.8470926031906734 0.8470926031906734 0.8470926031906734
0.8487241090647589 0.8487241090647589 0.8487241090647589
0.8503363070214154 0.8503363070214154 0.8503363070214154
0.8519296487131983 0.8519296487131983 0.8519296487131983
0.8535045701281685 0.8535045701281685 0.8535045701281685
0.855061492305998 0.855061492305998 0.855061492305998
0.8566008220136152 0.8566008220136152 0.8566008220136152
0.8581229523831047 0.8581229523831047 0.8581229523831047
0.8596282635143635 0.8596282635143635 0.8596282635143635
0.8611171230448235 0.8611171230448235 0.8611171230448235
0.8625898866883784 0.8625898866883784 0.8625898866883784
0.8640468987454903 0.8640468987454903 0.8640468987454903
0.8654884925863054 0.8654884925863054 0.8654884925863054
0.8669149911084759 0.8669149911084759 0.8669149911084759
0.8683267071712596 0.8683267071712596 0.8683267071712596
0.8697239440073583 0.8697239440073583 0.8697239440073583
0.8711069956138492 0.8711069956138492 0.8711069956138492
0.8724761471234717 0.8724761471234717 0.8724761471234717
0.8738316751574431 0.8738316751574431 0.8738316751574431
0.8751738481608909 0.8751738481608909 0.8751738481608909
0.8765029267219263 0.8765029267219263 0.8765029267219263
0.8778191638752993 0.8778191638752993 0.8778191638752993
0.8791228053915275 0.8791228053915275 0.8791228053915275
0.8804140900523203 0.8804140900523203 0.8804140900523203
0.8816932499130733 0.8816932499130733 0.8816932499130733
0.8829605105531523 0.8829605105531523 0.8829605105531523
0.8842160913146442 0.8842160913146442 0.8842160913146442
0.8854602055302054 0.8854602055302054 0.8854602055302054
0.8866930607406006 0.8866930607406006 0.8866930607406006
0.8879148589024861 0.8879148589024861 0.8879148589024861
0.8891257965869578 0.8891257965869578 0.8891257965869578
0.8903260651693532 0.8903260651693532 0.8903260651693532
0.8915158510107641 0.8915158510107641 0.8915158510107641
0.8926953356316929 0.8926953356316929 0.8926953356316929
0.893864695878254 0.893864695878254 0.893864695878254
0.8950241040813046 0.8950241040813046 0.8950241040813046
0.8961737282088583 0.8961737282088583 0.8961737282088583
0.8973137320121253 0.8973137320121253 0.8973137320121253
0.8984442751654891 0.8984442751654891 0.8984442751654891
0.899565513400725 0.899565513400725 0.899565513400725
0.9006775986357397 0.9006775986357397 0.9006775986357397
0.9017806790980979 0.9017806790980979 0.9017806790980979
0.9028748994435896 0.9028748994435896 0.9028748994435896
0.9039604008700715 0.9039604008700715 0.9039604008700715
0.9050373212268108 0.9050373212268108 0.9050373212268108
0.9061057951195389 0.9061057951195389 0.9061057951195389
0.9071659540114195 0.9071659540114195 0.9071659540114195
0.9082179263201163 0.9082179263201163 0.9082179263201163
0.9092618375111426 0.9092618375111426 0.9092618375111426
0.9102978101876618 0.9102978101876618 0.9102978101876618
0.9113259641768978 0.9113259641768978 0.9113259641768978
0.9123464166133107 0.9123464166133107 0.9123464166133107
0.9133592820186797 0.9133592820186797 0.9133592820186797
0.9143646723792298 0.9143646723792298 0.9143646723792298
0.9153626972199355 0.9153626972199355 0.9153626972199355
0.9163534636761207 0.9163534636761207 0.9163534636761207
0.9173370765624745 0.9173370765624745 0.9173370765624745
0.9183136384395936 0.9183136384395936 0.9183136384395936
0.9192832496781553 0.9192832496781553 0.9192832496781553
0.920246008520825 0.920246008520825 0.920246008520825
0.9212020111419894 0.9212020111419894 0.9212020111419894
0.9221513517054095 0.9221513517054095 0.9221513517054095
0.9230941224198785 0.9230941224198785 0.9230941224198785
0.9240304135929671 0.9240304135929671 0.9240304135929671
0.9249603136829342 0.9249603136829342 0.9249603136829342
0.9258839093488782 0.9258839093488782 0.9258839093488782
0.9268012854991994 0.9268012854991994 0.9268012854991994
0.9277125253384416 0.9277125253384416 0.9277125253384416
0.9286177104125781 0.9286177104125781 0.9286177104125781
0.9295169206528023 0.9295169206528023 0.9295169206528023
0.9304102344178826 0.9304102344178826 0.9304102344178826
0.9312977285351385 0.9312977285351385 0.9312977285351385
0.9321794783400893 0.9321794783400893 0.9321794783400893
0.9330555577148293 0.9330555577148293 0.9330555577148293
0.9339260391251758 0.9339260391251758 0.9339260391251758
0.9347909936566384 0.9347909936566384 0.9347909936566384
0.9356504910492535 0.9356504910492535 0.9356504910492535
0.9365045997313265 0.9365045997313265 0.9365045997313265
0.9373533868521239 0.9373533868521239 0.9373533868521239
0.9381969183135512 0.9381969183135512 0.9381969183135512
0.9390352588008584 0.9390352588008584 0.9390352588008584
0.939868471812405 0.939868471812405 0.939868471812405
0.9406966196885205 0.9406966196885205 0.9406966196885205
0.9415197636394939 0.9415197636394939 0.9415197636394939
0.9423379637727212 0.9423379637727212 0.9423379637727212
0.9431512791190437 0.9431512791190437 0.9431512791190437
0.9439597676583042 0.9439597676583042 0.9439597676583042
0.9447634863441495 0.9447634863441495 0.9447634863441495
0.9455624911281055 0.9455624911281055 0.9455624911281055
0.9463568369829503 0.9463568369829503 0.9463568369829503
0.9471465779254097 0.9471465779254097 0.9471465779254097
0.9479317670381997 0.9479317670381997 0.9479317670381997
0.9487124564914358 0.9487124564914358 0.9487124564914358
0.949488697563433 0.949488697563433 0.949488697563433
0.9502605406609174 0.9502605406609174 0.9502605406609174
0.9510280353386669 0.9510280353386669 0.9510280353386669
0.9517912303186034 0.9517912303186034 0.9517912303186034
0.9525501735083518 0.9525501735083518 0.9525501735083518
0.9533049120192852 0.9533049120192852 0.9533049120192852
0.9540554921840743 0.9540554921840743 0.9540554921840743
0.9548019595737534 0.9548019595737534 0.9548019595737534
0.9555443590143242 0.9555443590143242 0.9555443590143242
0.956282734602908 0.956282734602908 0.956282734602908
0.9570171297234622 0.9570171297234622 0.9570171297234622
0.9577475870620773 0.9577475870620773 0.9577475870620773
0.9584741486218633 0.9584741486218633 0.9584741486218633
0.9591968557374442 0.9591968557374442 0.9591968557374442
0.9599157490890675 0.9599157490890675 0.9599157490890675
0.9606308687163452 0.9606308687163452 0.9606308687163452
0.9613422540316344 0.9613422540316344 0.9613422540316344
0.9620499438330723 0.9620499438330723 0.9620499438330723
0.9627539763172724 0.9627539763172724 0.9627539763172724
0.9634543890916958 0.9634543890916958 0.9634543890916958
0.9641512191867049 0.9641512191867049 0.9641512191867049
0.9648445030673115 0.9648445030673115 0.9648445030673115
0.9655342766446272 0.9655342766446272 0.9655342766446272
0.9662205752870244 0.9662205752870244 0.9662205752870244
0.966903433831019 0.966903433831019 0.966903433831019
0.9675828865918804 0.9675828865918804 0.9675828865918804
0.9682589673739797 0.9682589673739797 0.9682589673739797
0.9689317094808806 0.9689317094808806 0.9689317094808806
0.9696011457251845 0.9696011457251845 0.9696011457251845
0.9702673084381324 0.9702673084381324 0.9702673084381324
0.9709302294789752 0.9709302294789752 0.9709302294789752
0.9715899402441167 0.9715899402441167 0.9715899402441167
0.972246471676035 0.972246471676035 0.972246471676035
0.9728998542719918 0.9728998542719918 0.9728998542719918
0.9735501180925326 0.9735501180925326 0.9735501180925326
0.9741972927697857 0.9741972927697857 0.9741972927697857
0.9748414075155644 0.9748414075155644 0.9748414075155644
0.9754824911292782 0.9754824911292782 0.9754824911292782
0.9761205720056609 0.9761205720056609 0.9761205720056609
0.9767556781423161 0.9767556781423161 0.9767556781423161
0.9773878371470879 0.9773878371470879 0.9773878371470879
0.9780170762452632 0.9780170762452632 0.9780170762452632
0.9786434222866072 0.9786434222866072 0.9786434222866072
0.9792669017522366 0.9792669017522366 0.9792669017522366
0.9798875407613394 0.9798875407613394 0.9798875407613394
0.9805053650777391 0.9805053650777391 0.9805053650777391
0.9811204001163129 0.9811204001163129 0.9811204001163129
0.9817326709492648 0.9817326709492648 0.9817326709492648
0.982342202312258 0.982342202312258 0.982342202312258
0.9829490186104122 0.9829490186104122 0.9829490186104122
0.9835531439241657 0.9835531439241657 0.9835531439241657
0.9841546020150099 0.9841546020150099 0.9841546020150099
0.9847534163310977 0.9847534163310977 0.9847534163310977
0.9853496100127277 0.9853496100127277 0.9853496100127277
0.98594320589771 0.98594320589771 0.98594320589771
0.9865342265266162 0.9865342265266162 0.9865342265266162
0.9871226941479149 0.9871226941479149 0.9871226941479149
0.9877086307229967 0.9877086307229967 0.9877086307229967
0.9882920579310926 0.9882920579310926 0.9882920579310926
0.9888729971740869 0.9888729971740869 0.9888729971740869
0.9894514695812278 0.9894514695812278 0.9894514695812278
0.9900274960137382 0.9900274960137382 0.9900274960137382
0.9906010970693309 0.9906010970693309 0.9906010970693309
0.9911722930866271 0.9911722930866271 0.9911722930866271
0.9917411041494844 0.9917411041494844 0.9917411041494844
0.9923075500912331 0.9923075500912331 0.9923075500912331
0.9928716504988262 0.9928716504988262 0.9928716504988262
0.993433424716904 0.993433424716904 0.993433424716904
0.9939928918517734 0.9939928918517734 0.9939928918517734
0.9945500707753081 0.9945500707753081 0.9945500707753081
0.9951049801287676 0.9951049801287676 0.9951049801287676
0.9956576383265394 0.9956576383265394 0.9956576383265394
0.9962080635598064 0.9962080635598064 0.9962080635598064
0.996756273800139 0.996756273800139 0.996756273800139
0.997302286803016 0.997302286803016 0.997302286803016
0.9978461201112757 0.9978461201112757 0.9978461201112757
0.9983877910584972 0.9983877910584972 0.9983877910584972
0.9989273167723157 0.9989273167723157 0.9989273167723157
0.9994647141776725 0.9994647141776725 0.9994647141776725
1.0 1.0 1.0