luts/lut_arcsinh_stretch_1165.cube
TITLE "Arcsinh_Stretch_1165"
LUT_1D_SIZE 256
DOMAIN_MIN 0.0 0.0 0.0
DOMAIN_MAX 1.0 1.0 1.0
0.0 0.0 0.0
0.44932348272812606 0.44932348272812606 0.44932348272812606
0.518199321752433 0.518199321752433 0.518199321752433
0.5584926285849444 0.5584926285849444 0.5584926285849444
0.5870817716939314 0.5870817716939314 0.5870817716939314
0.6092574126402442 0.6092574126402442 0.6092574126402442
0.627376303011711 0.627376303011711 0.627376303011711
0.6426956413866578 0.6426956413866578 0.6426956413866578
0.6559658747083645 0.6559658747083645 0.6559658747083645
0.6676710610989368 0.6676710610989368 0.6676710610989368
0.678141714032669 0.678141714032669 0.678141714032669
0.6876135762965836 0.6876135762965836 0.6876135762965836
0.6962607121658501 0.6962607121658501 0.6962607121658501
0.7042153082639763 0.7042153082639763 0.7042153082639763
0.711580115517994 0.711580115517994 0.711580115517994
0.7184365882274135 0.7184365882274135 0.7184365882274135
0.7248503910125146 0.7248503910125146 0.7248503910125146
0.7308752333322946 0.7308752333322946 0.7308752333322946
0.7365556063166808 0.7365556063166808 0.7365556063166808
0.7419287786535751 0.7419287786535751 0.7419287786535751
0.7470262799321625 0.7470262799321625 0.7470262799321625
0.7518750217017306 0.7518750217017306 0.7518750217017306
0.7564981574982468 0.7564981574982468 0.7564981574982468
0.7609157515405589 0.7609157515405589 0.7609157515405589
0.7651453050060759 0.7651453050060759 0.7651453050060759
0.7692021748032745 0.7692021748032745 0.7692021748032745
0.7730999101617454 0.7730999101617454 0.7730999101617454
0.7768505256646351 0.7768505256646351 0.7768505256646351
0.7804647246026494 0.7804647246026494 0.7804647246026494
0.7839520831166606 0.7839520831166606 0.7839520831166606
0.7873212031100839 0.7873212031100839 0.7873212031100839
0.7905798400789605 0.7905798400789605 0.7905798400789605
0.7937350106404366 0.7937350106404366 0.7937350106404366
0.7967930835099112 0.7967930835099112 0.7967930835099112
0.799759856892966 0.799759856892966 0.799759856892966
0.8026406246559925 0.8026406246559925 0.8026406246559925
0.805440233173035 0.805440233173035 0.805440233173035
0.8081631303822593 0.8081631303822593 0.8081631303822593
0.8108134082990658 0.8108134082990658 0.8108134082990658
0.8133948400060308 0.8133948400060308 0.8133948400060308
0.8159109119589733 0.8159109119589733 0.8159109119589733
0.8183648523033265 0.8183648523033265 0.8183648523033265
0.8207596557778419 0.8207596557778419 0.8207596557778419
0.823098105687589 0.823098105687589 0.823098105687589
0.8253827933506116 0.8253827933506116 0.8253827933506116
0.8276161353589845 0.8276161353589845 0.8276161353589845
0.8298003889425677 0.8298003889425677 0.8298003889425677
0.8319376656803382 0.8319376656803382 0.8319376656803382
0.8340299437680887 0.8340299437680887 0.8340299437680887
0.8360790790211313 0.8360790790211313 0.8360790790211313
0.8380868147653782 0.8380868147653782 0.8380868147653782
0.840054790748906 0.840054790748906 0.840054790748906
0.841984551188149 0.841984551188149 0.841984551188149
0.8438775520476415 0.8438775520476415 0.8438775520476415
0.8457351676392871 0.8457351676392871 0.8457351676392871
0.8475586966160832 0.8475586966160832 0.8475586966160832
0.8493493674257777 0.8493493674257777 0.8493493674257777
0.8511083432818252 0.8511083432818252 0.8511083432818252
0.8528367267020144 0.8528367267020144 0.8528367267020144
0.8545355636591214 0.8545355636591214 0.8545355636591214
0.8562058473827182 0.8562058473827182 0.8562058473827182
0.857848521846735 0.857848521846735 0.857848521846735
0.8594644849734434 0.8594644849734434 0.8594644849734434
0.8610545915810873 0.8610545915810873 0.8610545915810873
0.8626196560993855 0.8626196560993855 0.8626196560993855
0.8641604550745055 0.8641604550745055 0.8641604550745055
0.8656777294827929 0.8656777294827929 0.8656777294827929
0.8671721868705182 0.8671721868705182 0.8671721868705182
0.8686445033351036 0.8686445033351036 0.8686445033351036
0.8700953253617202 0.8700953253617202 0.8700953253617202
0.8715252715277415 0.8715252715277415 0.8715252715277415
0.8729349340862993 0.8729349340862993 0.8729349340862993
0.8743248804390941 0.8743248804390941 0.8743248804390941
0.8756956545076181 0.8756956545076181 0.8756956545076181
0.8770477780110915 0.8770477780110915 0.8770477780110915
0.8783817516586228 0.8783817516586228 0.8783817516586228
0.8796980562624097 0.8796980562624097 0.8796980562624097
0.880997153778178 0.880997153778178 0.880997153778178
0.8822794882784861 0.8822794882784861 0.8822794882784861
0.8835454868640334 0.8835454868640334 0.8835454868640334
0.8847955605176477 0.8847955605176477 0.8847955605176477
0.8860301049052262 0.8860301049052262 0.8860301049052262
0.8872495011275335 0.8872495011275335 0.8872495011275335
0.8884541164264365 0.8884541164264365 0.8884541164264365
0.8896443048488419 0.8896443048488419 0.8896443048488419
0.8908204078713485 0.8908204078713485 0.8908204078713485
0.8919827549883649 0.8919827549883649 0.8919827549883649
0.8931316642662315 0.8931316642662315 0.8931316642662315
0.8942674428656753 0.8942674428656753 0.8942674428656753
0.8953903875347454 0.8953903875347454 0.8953903875347454
0.8965007850742096 0.8965007850742096 0.8965007850742096
0.897598912777235 0.897598912777235 0.897598912777235
0.8986850388450426 0.8986850388450426 0.8986850388450426
0.8997594227800919 0.8997594227800919 0.8997594227800919
0.9008223157582386 0.9008223157582386 0.9008223157582386
0.9018739609811995 0.9018739609811995 0.9018739609811995
0.9029145940105648 0.9029145940105648 0.9029145940105648
0.9039444430845005 0.9039444430845005 0.9039444430845005
0.9049637294182103 0.9049637294182103 0.9049637294182103
0.905972667489145 0.905972667489145 0.905972667489145
0.9069714653078771 0.9069714653078771 0.9069714653078771
0.907960324675502 0.907960324675502 0.907960324675502
0.9089394414283548 0.9089394414283548 0.9089394414283548
0.9099090056707915 0.9099090056707915 0.9099090056707915
0.9108692019967229 0.9108692019967229 0.9108692019967229
0.9118202097005503 0.9118202097005503 0.9118202097005503
0.912762202978101 0.912762202978101 0.912762202978101
0.9136953511181314 0.9136953511181314 0.9136953511181314
0.9146198186849235 0.9146198186849235 0.9146198186849235
0.9155357656924639 0.9155357656924639 0.9155357656924639
0.9164433477706712 0.9164433477706712 0.9164433477706712
0.917342716324101 0.917342716324101 0.917342716324101
0.9182340186835334 0.9182340186835334 0.9182340186835334
0.9191173982508222 0.9191173982508222 0.9191173982508222
0.9199929946373662 0.9199929946373662 0.9199929946373662
0.9208609437965279 0.9208609437965279 0.9208609437965279
0.9217213781503263 0.9217213781503263 0.9217213781503263
0.9225744267106853 0.9225744267106853 0.9225744267106853
0.9234202151955275 0.9234202151955275 0.9234202151955275
0.9242588661399671 0.9242588661399671 0.9242588661399671
0.9250904990028505 0.9250904990028505 0.9250904990028505
0.9259152302688756 0.9259152302688756 0.9259152302688756
0.9267331735465094 0.9267331735465094 0.9267331735465094
0.927544439661909 0.927544439661909 0.927544439661909
0.9283491367490377 0.9283491367490377 0.9283491367490377
0.9291473703361655 0.9291473703361655 0.9291473703361655
0.9299392434289198 0.9299392434289198 0.9299392434289198
0.9307248565900555 0.9307248565900555 0.9307248565900555
0.9315043080160965 0.9315043080160965 0.9315043080160965
0.9322776936109938 0.9322776936109938 0.9322776936109938
0.9330451070569404 0.9330451070569404 0.9330451070569404
0.9338066398824737 0.9338066398824737 0.9338066398824737
0.934562381527987 0.934562381527987 0.934562381527987
0.9353124194087687 0.9353124194087687 0.9353124194087687
0.9360568389756824 0.9360568389756824 0.9360568389756824
0.9367957237735884 0.9367957237735884 0.9367957237735884
0.9375291554976116 0.9375291554976116 0.9375291554976116
0.9382572140473479 0.9382572140473479 0.9382572140473479
0.9389799775790972 0.9389799775790972 0.9389799775790972
0.9396975225562144 0.9396975225562144 0.9396975225562144
0.9404099237976525 0.9404099237976525 0.9404099237976525
0.9411172545247793 0.9411172545247793 0.9411172545247793
0.9418195864065405 0.9418195864065405 0.9418195864065405
0.9425169896030366 0.9425169896030366 0.9425169896030366
0.9432095328075827 0.9432095328075827 0.9432095328075827
0.9438972832873121 0.9438972832873121 0.9438972832873121
0.944580306922385 0.944580306922385 0.944580306922385
0.9452586682438585 0.9452586682438585 0.9452586682438585
0.9459324304702733 0.9459324304702733 0.9459324304702733
0.946601655543009 0.946601655543009 0.946601655543009
0.9472664041604547 0.9472664041604547 0.9472664041604547
0.947926735811048 0.947926735811048 0.947926735811048
0.9485827088052196 0.9485827088052196 0.9485827088052196
0.9492343803062936 0.9492343803062936 0.9492343803062936
0.9498818063603794 0.9498818063603794 0.9498818063603794
0.9505250419252976 0.9505250419252976 0.9505250419252976
0.9511641408985739 0.9511641408985739 0.9511641408985739
0.9517991561445409 0.9517991561445409 0.9517991561445409
0.9524301395205779 0.9524301395205779 0.9524301395205779
0.9530571419025231 0.9530571419025231 0.9530571419025231
0.9536802132092904 0.9536802132092904 0.9536802132092904
0.9542994024267167 0.9542994024267167 0.9542994024267167
0.9549147576306748 0.9549147576306748 0.9549147576306748
0.9555263260094705 0.9555263260094705 0.9555263260094705
0.9561341538855592 0.9561341538855592 0.9561341538855592
0.9567382867365989 0.9567382867365989 0.9567382867365989
0.9573387692158688 0.9573387692158688 0.9573387692158688
0.9579356451720755 0.9579356451720755 0.9579356451720755
0.9585289576685658 0.9585289576685658 0.9585289576685658
0.9591187490019711 0.9591187490019711 0.9591187490019711
0.9597050607203013 0.9597050607203013 0.9597050607203013
0.9602879336405071 0.9602879336405071 0.9602879336405071
0.9608674078655327 0.9608674078655327 0.9608674078655327
0.9614435228008718 0.9614435228008718 0.9614435228008718
0.9620163171706472 0.9620163171706472 0.9620163171706472
0.9625858290332303 0.9625858290332303 0.9625858290332303
0.9631520957964151 0.9631520957964151 0.9631520957964151
0.9637151542321619 0.9637151542321619 0.9637151542321619
0.964275040490927 0.964275040490927 0.964275040490927
0.9648317901155893 0.9648317901155893 0.9648317901155893
0.9653854380549899 0.9653854380549899 0.9653854380549899
0.9659360186770969 0.9659360186770969 0.9659360186770969
0.9664835657818073 0.9664835657818073 0.9664835657818073
0.9670281126133974 0.9670281126133974 0.9670281126133974
0.9675696918726353 0.9675696918726353 0.9675696918726353
0.9681083357285637 0.9681083357285637 0.9681083357285637
0.9686440758299665 0.9686440758299665 0.9686440758299665
0.9691769433165265 0.9691769433165265 0.9691769433165265
0.9697069688296874 0.9697069688296874 0.9697069688296874
0.9702341825232258 0.9702341825232258 0.9702341825232258
0.9707586140735454 0.9707586140735454 0.9707586140735454
0.9712802926897004 0.9712802926897004 0.9712802926897004
0.9717992471231579 0.9717992471231579 0.9717992471231579
0.9723155056773064 0.9723155056773064 0.9723155056773064
0.9728290962167178 0.9728290962167178 0.9728290962167178
0.9733400461761729 0.9733400461761729 0.9733400461761729
0.9738483825694543 0.9738483825694543 0.9738483825694543
0.9743541319979171 0.9743541319979171 0.9743541319979171
0.9748573206588416 0.9748573206588416 0.9748573206588416
0.9753579743535762 0.9753579743535762 0.9753579743535762
0.9758561184954759 0.9758561184954759 0.9758561184954759
0.9763517781176425 0.9763517781176425 0.9763517781176425
0.9768449778804739 0.9768449778804739 0.9768449778804739
0.9773357420790251 0.9773357420790251 0.9773357420790251
0.977824094650191 0.977824094650191 0.977824094650191
0.9783100591797108 0.9783100591797108 0.9783100591797108
0.9787936589090033 0.9787936589090033 0.9787936589090033
0.9792749167418375 0.9792749167418375 0.9792749167418375
0.9797538552508407 0.9797538552508407 0.9797538552508407
0.9802304966838512 0.9802304966838512 0.9802304966838512
0.9807048629701213 0.9807048629701213 0.9807048629701213
0.9811769757263687 0.9811769757263687 0.9811769757263687
0.9816468562626899 0.9816468562626899 0.9816468562626899
0.9821145255883297 0.9821145255883297 0.9821145255883297
0.9825800044173194 0.9825800044173194 0.9825800044173194
0.9830433131739813 0.9830433131739813 0.9830433131739813
0.9835044719983066 0.9835044719983066 0.9835044719983066
0.9839635007512082 0.9839635007512082 0.9839635007512082
0.9844204190196534 0.9844204190196534 0.9844204190196534
0.9848752461216791 0.9848752461216791 0.9848752461216791
0.9853280011112923 0.9853280011112923 0.9853280011112923
0.9857787027832604 0.9857787027832604 0.9857787027832604
0.9862273696777923 0.9862273696777923 0.9862273696777923
0.9866740200851146 0.9866740200851146 0.9866740200851146
0.9871186720499462 0.9871186720499462 0.9871186720499462
0.987561343375872 0.987561343375872 0.987561343375872
0.9880020516296206 0.9880020516296206 0.9880020516296206
0.9884408141452473 0.9884408141452473 0.9884408141452473
0.9888776480282253 0.9888776480282253 0.9888776480282253
0.989312570159446 0.989312570159446 0.989312570159446
0.9897455971991349 0.9897455971991349 0.9897455971991349
0.9901767455906798 0.9901767455906798 0.9901767455906798
0.9906060315643782 0.9906060315643782 0.9906060315643782
0.9910334711411031 0.9910334711411031 0.9910334711411031
0.9914590801358901 0.9914590801358901 0.9914590801358901
0.9918828741614498 0.9918828741614498 0.9918828741614498
0.992304868631603 0.992304868631603 0.992304868631603
0.9927250787646454 0.9927250787646454 0.9927250787646454
0.9931435195866404 0.9931435195866404 0.9931435195866404
0.9935602059346431 0.9935602059346431 0.9935602059346431
0.9939751524598576 0.9939751524598576 0.9939751524598576
0.9943883736307269 0.9943883736307269 0.9943883736307269
0.9947998837359612 0.9947998837359612 0.9947998837359612
0.9952096968875024 0.9952096968875024 0.9952096968875024
0.9956178270234272 0.9956178270234272 0.9956178270234272
0.996024287910792 0.996024287910792 0.996024287910792
0.9964290931484197 0.9964290931484197 0.9964290931484197
0.9968322561696291 0.9968322561696291 0.9968322561696291
0.9972337902449103 0.9972337902449103 0.9972337902449103
0.9976337084845454 0.9976337084845454 0.9976337084845454
0.9980320238411762 0.9980320238411762 0.9980320238411762
0.9984287491123234 0.9984287491123234 0.9984287491123234
0.9988238969428519 0.9988238969428519 0.9988238969428519
0.9992174798273898 0.9992174798273898 0.9992174798273898
0.9996095101126992 0.9996095101126992 0.9996095101126992
1.0 1.0 1.0