luts/lut_arcsinh_stretch_170.cube
TITLE "Arcsinh_Stretch_170"
LUT_1D_SIZE 256
DOMAIN_MIN 0.0 0.0 0.0
DOMAIN_MAX 1.0 1.0 1.0
0.0 0.0 0.0
0.2992756474448262 0.2992756474448262 0.2992756474448262
0.38622611241211674 0.38622611241211674 0.38622611241211674
0.4374240341325837 0.4374240341325837 0.4374240341325837
0.4738061911604161 0.4738061911604161 0.4738061911604161
0.5020436987773992 0.5020436987773992 0.5020436987773992
0.5251224486290809 0.5251224486290809 0.5251224486290809
0.544638636156318 0.544638636156318 0.544638636156318
0.561546154197286 0.561546154197286 0.561546154197286
0.5764607151822739 0.5764607151822739 0.5764607151822739
0.5898029159555561 0.5898029159555561 0.5898029159555561
0.6018728460545495 0.6018728460545495 0.6018728460545495
0.6128921309854027 0.6128921309854027 0.6128921309854027
0.6230291041572886 0.6230291041572886 0.6230291041572886
0.6324146307752881 0.6324146307752881 0.6324146307752881
0.6411524627209763 0.6411524627209763 0.6411524627209763
0.649326246559469 0.649326246559469 0.649326246559469
0.657004404261026 0.657004404261026 0.657004404261026
0.6642436173268046 0.6642436173268046 0.6642436173268046
0.6710913680007458 0.6710913680007458 0.6710913680007458
0.677587828112093 0.677587828112093 0.677587828112093
0.6837672867318104 0.6837672867318104 0.6837672867318104
0.6896592454953213 0.6896592454953213 0.6896592454953213
0.6952892703069966 0.6952892703069966 0.6952892703069966
0.7006796616862779 0.7006796616862779 0.7006796616862779
0.7058499882085348 0.7058499882085348 0.7058499882085348
0.7108175152794909 0.7108175152794909 0.7108175152794909
0.7155975529587723 0.7155975529587723 0.7155975529587723
0.7202037405066356 0.7202037405066356 0.7202037405066356
0.7246482809837317 0.7246482809837317 0.7246482809837317
0.7289421360685749 0.7289421360685749 0.7289421360685749
0.7330951889230274 0.7330951889230274 0.7330951889230274
0.7371163811950016 0.7371163811950016 0.7371163811950016
0.7410138289353317 0.7410138289353317 0.7410138289353317
0.7447949212070776 0.7447949212070776 0.7447949212070776
0.7484664043985415 0.7484664043985415 0.7484664043985415
0.7520344546572335 0.7520344546572335 0.7520344546572335
0.7555047403982358 0.7555047403982358 0.7555047403982358
0.7588824764756266 0.7588824764756266 0.7588824764756266
0.7621724713166625 0.7621724713166625 0.7621724713166625
0.7653791680880063 0.7653791680880063 0.7653791680880063
0.7685066807784082 0.7685066807784082 0.7685066807784082
0.7715588259330228 0.7715588259330228 0.7715588259330228
0.7745391506534152 0.7745391506534152 0.7745391506534152
0.7774509573784675 0.7774509573784675 0.7774509573784675
0.7802973258803301 0.7802973258803301 0.7802973258803301
0.7830811328427497 0.7830811328427497 0.7830811328427497
0.7858050693337987 0.7858050693337987 0.7858050693337987
0.7884716564390308 0.7884716564390308 0.7884716564390308
0.7910832592826895 0.7910832592826895 0.7910832592826895
0.7936420996323921 0.7936420996323921 0.7936420996323921
0.796150267255626 0.796150267255626 0.796150267255626
0.7986097301734983 0.7986097301734983 0.7986097301734983
0.8010223439377945 0.8010223439377945 0.8010223439377945
0.8033898600408955 0.8033898600408955 0.8033898600408955
0.8057139335540383 0.8057139335540383 0.8057139335540383
0.8079961300773506 0.8079961300773506 0.8079961300773506
0.810237932074762 0.810237932074762 0.810237932074762
0.8124407446579825 0.8124407446579825 0.8124407446579825
0.8146059008760661 0.8146059008760661 0.8146059008760661
0.8167346665604218 0.8167346665604218 0.8167346665604218
0.8188282447693654 0.8188282447693654 0.8188282447693654
0.8208877798712866 0.8208877798712866 0.8208877798712866
0.8229143613011286 0.8229143613011286 0.8229143613011286
0.8249090270210524 0.8249090270210524 0.8249090270210524
0.8268727667128056 0.8268727667128056 0.8268727667128056
0.8288065247263765 0.8288065247263765 0.8288065247263765
0.8307112028069235 0.8307112028069235 0.8307112028069235
0.8325876626196925 0.8325876626196925 0.8325876626196925
0.8344367280906178 0.8344367280906178 0.8344367280906178
0.8362591875785194 0.8362591875785194 0.8362591875785194
0.8380557958932326 0.8380557958932326 0.8380557958932326
0.8398272761725968 0.8398272761725968 0.8398272761725968
0.8415743216299879 0.8415743216299879 0.8415743216299879
0.843297597182962 0.843297597182962 0.843297597182962
0.8449977409725854 0.8449977409725854 0.8449977409725854
0.8466753657821404 0.8466753657821404 0.8466753657821404
0.8483310603630984 0.8483310603630984 0.8483310603630984
0.8499653906755403 0.8499653906755403 0.8499653906755403
0.8515789010495656 0.8515789010495656 0.8515789010495656
0.8531721152736488 0.8531721152736488 0.8531721152736488
0.8547455376153965 0.8547455376153965 0.8547455376153965
0.8562996537796732 0.8562996537796732 0.8562996537796732
0.8578349318086584 0.8578349318086584 0.8578349318086584
0.8593518229280034 0.8593518229280034 0.8593518229280034
0.8608507623429168 0.8608507623429168 0.8608507623429168
0.8623321699876945 0.8623321699876945 0.8623321699876945
0.8637964512319192 0.8637964512319192 0.8637964512319192
0.8652439975463055 0.8652439975463055 0.8652439975463055
0.8666751871309247 0.8666751871309247 0.8666751871309247
0.8680903855083298 0.8680903855083298 0.8680903855083298
0.8694899460839114 0.8694899460839114 0.8694899460839114
0.8708742106756305 0.8708742106756305 0.8708742106756305
0.8722435100151162 0.8722435100151162 0.8722435100151162
0.8735981642219657 0.8735981642219657 0.8735981642219657
0.8749384832529469 0.8749384832529469 0.8749384832529469
0.8762647673276828 0.8762647673276828 0.8762647673276828
0.8775773073322778 0.8775773073322778 0.8775773073322778
0.878876385202245 0.878876385202245 0.878876385202245
0.8801622742859945 0.8801622742859945 0.8801622742859945
0.8814352396900548 0.8814352396900548 0.8814352396900548
0.8826955386071191 0.8826955386071191 0.8826955386071191
0.8839434206279306 0.8839434206279306 0.8839434206279306
0.885179128037953 0.885179128037953 0.885179128037953
0.8864028960997093 0.8864028960997093 0.8864028960997093
0.887614953321611 0.887614953321611 0.887614953321611
0.8888155217140445 0.8888155217140445 0.8888155217140445
0.8900048170334375 0.8900048170334375 0.8900048170334375
0.8911830490149694 0.8911830490149694 0.8911830490149694
0.8923504215945599 0.8923504215945599 0.8923504215945599
0.8935071331207198 0.8935071331207198 0.8935071331207198
0.894653376556816 0.894653376556816 0.894653376556816
0.8957893396742651 0.8957893396742651 0.8957893396742651
0.8969152052371413 0.8969152052371413 0.8969152052371413
0.8980311511786508 0.8980311511786508 0.8980311511786508
0.8991373507699006 0.8991373507699006 0.8991373507699006
0.9002339727813604 0.9002339727813604 0.9002339727813604
0.9013211816373938 0.9013211816373938 0.9013211816373938
0.9023991375642159 0.9023991375642159 0.9023991375642159
0.9034679967316048 0.9034679967316048 0.9034679967316048
0.9045279113886864 0.9045279113886864 0.9045279113886864
0.9055790299940825 0.9055790299940825 0.9055790299940825
0.9066214973407043 0.9066214973407043 0.9066214973407043
0.9076554546754517 0.9076554546754517 0.9076554546754517
0.9086810398140668 0.9086810398140668 0.9086810398140668
0.909698387251373 0.909698387251373 0.909698387251373
0.9107076282671246 0.9107076282671246 0.9107076282671246
0.9117088910276705 0.9117088910276705 0.9117088910276705
0.9127023006836317 0.9127023006836317 0.9127023006836317
0.9136879794637781 0.9136879794637781 0.9136879794637781
0.9146660467652805 0.9146660467652805 0.9146660467652805
0.9156366192405045 0.9156366192405045 0.9156366192405045
0.9165998108805047 0.9165998108805047 0.9165998108805047
0.9175557330953668 0.9175557330953668 0.9175557330953668
0.9185044947915421 0.9185044947915421 0.9185044947915421
0.9194462024463064 0.9194462024463064 0.9194462024463064
0.9203809601794714 0.9203809601794714 0.9203809601794714
0.9213088698224681 0.9213088698224681 0.9213088698224681
0.9222300309849205 0.9222300309849205 0.9222300309849205
0.9231445411188135 0.9231445411188135 0.9231445411188135
0.9240524955803618 0.9240524955803618 0.9240524955803618
0.9249539876896773 0.9249539876896773 0.9249539876896773
0.9258491087883274 0.9258491087883274 0.9258491087883274
0.9267379482948744 0.9267379482948744 0.9267379482948744
0.9276205937584786 0.9276205937584786 0.9276205937584786
0.9284971309106482 0.9284971309106482 0.9284971309106482
0.929367643715209 0.929367643715209 0.929367643715209
0.93023221441657 0.93023221441657 0.93023221441657
0.9310909235863526 0.9310909235863526 0.9310909235863526
0.9319438501684488 0.9319438501684488 0.9319438501684488
0.9327910715225736 0.9327910715225736 0.9327910715225736
0.9336326634663702 0.9336326634663702 0.9336326634663702
0.9344687003161246 0.9344687003161246 0.9344687003161246
0.9352992549261471 0.9352992549261471 0.9352992549261471
0.9361243987268688 0.9361243987268688 0.9361243987268688
0.936944201761707 0.936944201761707 0.936944201761707
0.9377587327227445 0.9377587327227445 0.9377587327227445
0.9385680589852683 0.9385680589852683 0.9385680589852683
0.9393722466412137 0.9393722466412137 0.9393722466412137
0.9401713605315505 0.9401713605315505 0.9401713605315505
0.9409654642776573 0.9409654642776573 0.9409654642776573
0.9417546203117154 0.9417546203117154 0.9417546203117154
0.9425388899061637 0.9425388899061637 0.9425388899061637
0.9433183332022463 0.9433183332022463 0.9433183332022463
0.9440930092376872 0.9440930092376872 0.9440930092376872
0.9448629759735242 0.9448629759735242 0.9448629759735242
0.9456282903201317 0.9456282903201317 0.9456282903201317
0.9463890081624623 0.9463890081624623 0.9463890081624623
0.9471451843845345 0.9471451843845345 0.9471451843845345
0.9478968728931945 0.9478968728931945 0.9478968728931945
0.9486441266411758 0.9486441266411758 0.9486441266411758
0.9493869976494843 0.9493869976494843 0.9493869976494843
0.9501255370291289 0.9501255370291289 0.9501255370291289
0.9508597950022238 0.9508597950022238 0.9508597950022238
0.9515898209224817 0.9515898209224817 0.9515898209224817
0.95231566329512 0.95231566329512 0.95231566329512
0.9530373697961996 0.9530373697961996 0.9530373697961996
0.9537549872914173 0.9537549872914173 0.9537549872914173
0.9544685618543665 0.9544685618543665 0.9544685618543665
0.955178138784288 0.955178138784288 0.955178138784288
0.9558837626233266 0.9558837626233266 0.9558837626233266
0.9565854771733081 0.9565854771733081 0.9565854771733081
0.9572833255120552 0.9572833255120552 0.9572833255120552
0.9579773500092567 0.9579773500092567 0.9579773500092567
0.9586675923419034 0.9586675923419034 0.9586675923419034
0.9593540935093063 0.9593540935093063 0.9593540935093063
0.9600368938477096 0.9600368938477096 0.9600368938477096
0.9607160330445123 0.9607160330445123 0.9607160330445123
0.9613915501521102 0.9613915501521102 0.9613915501521102
0.962063483601371 0.962063483601371 0.962063483601371
0.9627318712147535 0.9627318712147535 0.9627318712147535
0.9633967502190832 0.9633967502190832 0.9633967502190832
0.9640581572579935 0.9640581572579935 0.9640581572579935
0.9647161284040437 0.9647161284040437 0.9647161284040437
0.9653706991705254 0.9653706991705254 0.9653706991705254
0.9660219045229631 0.9660219045229631 0.9660219045229631
0.9666697788903222 0.9666697788903222 0.9666697788903222
0.9673143561759316 0.9673143561759316 0.9673143561759316
0.9679556697681294 0.9679556697681294 0.9679556697681294
0.9685937525506408 0.9685937525506408 0.9685937525506408
0.9692286369126955 0.9692286369126955 0.9692286369126955
0.9698603547588931 0.9698603547588931 0.9698603547588931
0.9704889375188238 0.9704889375188238 0.9704889375188238
0.9711144161564512 0.9711144161564512 0.9711144161564512
0.9717368211792649 0.9717368211792649 0.9717368211792649
0.9723561826472088 0.9723561826472088 0.9723561826472088
0.9729725301813931 0.9729725301813931 0.9729725301813931
0.973585892972594 0.973585892972594 0.973585892972594
0.9741962997895502 0.9741962997895502 0.9741962997895502
0.9748037789870593 0.9748037789870593 0.9748037789870593
0.9754083585138806 0.9754083585138806 0.9754083585138806
0.9760100659204519 0.9760100659204519 0.9760100659204519
0.9766089283664224 0.9766089283664224 0.9766089283664224
0.9772049726280085 0.9772049726280085 0.9772049726280085
0.9777982251051778 0.9777982251051778 0.9777982251051778
0.9783887118286655 0.9783887118286655 0.9783887118286655
0.9789764584668281 0.9789764584668281 0.9789764584668281
0.9795614903323383 0.9795614903323383 0.9795614903323383
0.9801438323887267 0.9801438323887267 0.9801438323887267
0.9807235092567732 0.9807235092567732 0.9807235092567732
0.9813005452207532 0.9813005452207532 0.9813005452207532
0.981874964234542 0.981874964234542 0.981874964234542
0.9824467899275814 0.9824467899275814 0.9824467899275814
0.9830160456107127 0.9830160456107127 0.9830160456107127
0.9835827542818774 0.9835827542818774 0.9835827542818774
0.9841469386316942 0.9841469386316942 0.9841469386316942
0.9847086210489092 0.9847086210489092 0.9847086210489092
0.9852678236257271 0.9852678236257271 0.9852678236257271
0.9858245681630254 0.9858245681630254 0.9858245681630254
0.9863788761754545 0.9863788761754545 0.9863788761754545
0.9869307688964255 0.9869307688964255 0.9869307688964255
0.9874802672829921 0.9874802672829921 0.9874802672829921
0.9880273920206246 0.9880273920206246 0.9880273920206246
0.9885721635278827 0.9885721635278827 0.9885721635278827
0.9891146019609879 0.9891146019609879 0.9891146019609879
0.9896547272182984 0.9896547272182984 0.9896547272182984
0.9901925589446889 0.9901925589446889 0.9901925589446889
0.990728116535838 0.990728116535838 0.990728116535838
0.9912614191424252 0.9912614191424252 0.9912614191424252
0.9917924856742393 0.9917924856742393 0.9917924856742393
0.9923213348042027 0.9923213348042027 0.9923213348042027
0.9928479849723104 0.9928479849723104 0.9928479849723104
0.9933724543894882 0.9933724543894882 0.9933724543894882
0.9938947610413705 0.9938947610413705 0.9938947610413705
0.9944149226920026 0.9944149226920026 0.9944149226920026
0.9949329568874645 0.9949329568874645 0.9949329568874645
0.9954488809594233 0.9954488809594233 0.9954488809594233
0.9959627120286118 0.9959627120286118 0.9959627120286118
0.9964744670082379 0.9964744670082379 0.9964744670082379
0.9969841626073253 0.9969841626073253 0.9969841626073253
0.9974918153339865 0.9974918153339865 0.9974918153339865
0.9979974414986312 0.9979974414986312 0.9979974414986312
0.9985010572171111 0.9985010572171111 0.9985010572171111
0.9990026784138012 0.9990026784138012 0.9990026784138012
0.9995023208246216 0.9995023208246216 0.9995023208246216
1.0 1.0 1.0