luts/lut_arcsinh_stretch_275.cube
TITLE "Arcsinh_Stretch_275"
LUT_1D_SIZE 256
DOMAIN_MIN 0.0 0.0 0.0
DOMAIN_MAX 1.0 1.0 1.0
0.0 0.0 0.0
0.3440635630817983 0.3440635630817983 0.3440635630817983
0.4258916612187932 0.4258916612187932 0.4258916612187932
0.4738643091061241 0.4738643091061241 0.4738643091061241
0.5079192326990423 0.5079192326990423 0.5079192326990423
0.5343397071024247 0.5343397071024247 0.5343397071024247
0.5559290052708 0.5559290052708 0.5559290052708
0.5741835547895181 0.5741835547895181 0.5741835547895181
0.5899969362645064 0.5899969362645064 0.5899969362645064
0.6039456627597712 0.6039456627597712 0.6039456627597712
0.6164234336555074 0.6164234336555074 0.6164234336555074
0.6277110883909828 0.6277110883909828 0.6277110883909828
0.6380160042123003 0.6380160042123003 0.6380160042123003
0.6474956746158256 0.6474956746158256 0.6474956746158256
0.6562725270965302 0.6562725270965302 0.6562725270965302
0.664443617430952 0.664443617430952 0.664443617430952
0.6720871894496194 0.6720871894496194 0.6720871894496194
0.6792672429491359 0.6792672429491359 0.6792672429491359
0.686036794150717 0.686036794150717 0.686036794150717
0.6924402535572677 0.6924402535572677 0.6924402535572677
0.6985151932418949 0.6985151932418949 0.6985151932418949
0.7042936825437957 0.7042936825437957 0.7042936825437957
0.7098033127816764 0.7098033127816764 0.7098033127816764
0.7150679940166765 0.7150679940166765 0.7150679940166765
0.7201085821308943 0.7201085821308943 0.7201085821308943
0.7249433778199217 0.7249433778199217 0.7249433778199217
0.7295885276659065 0.7295885276659065 0.7295885276659065
0.7340583494809897 0.7340583494809897 0.7340583494809897
0.7383655984572975 0.7383655984572975 0.7383655984572975
0.7425216865946018 0.7425216865946018 0.7425216865946018
0.7465368649151074 0.7465368649151074 0.7465368649151074
0.7504203757906814 0.7504203757906814 0.7504203757906814
0.7541805810788367 0.7541805810788367 0.7541805810788367
0.7578250705360808 0.7578250705360808 0.7578250705360808
0.7613607540429186 0.7613607540429186 0.7613607540429186
0.7647939404572816 0.7647939404572816 0.7647939404572816
0.7681304053574315 0.7681304053574315 0.7681304053574315
0.7713754495015379 0.7713754495015379 0.7713754495015379
0.7745339494898829 0.7745339494898829 0.7745339494898829
0.7776104018453536 0.7776104018453536 0.7776104018453536
0.78060896151235 0.78060896151235 0.78060896151235
0.7835334756013065 0.7835334756013065 0.7835334756013065
0.7863875130664405 0.7863875130664405 0.7863875130664405
0.7891743908910475 0.7891743908910475 0.7891743908910475
0.7918971972622072 0.7918971972622072 0.7918971972622072
0.7945588121409445 0.7945588121409445 0.7945588121409445
0.7971619255713942 0.7971619255713942 0.7971619255713942
0.7997090540207936 0.7997090540207936 0.7997090540207936
0.8022025549991 0.8022025549991 0.8022025549991
0.8046446401711194 0.8046446401711194 0.8046446401711194
0.8070373871439119 0.8070373871439119 0.8070373871439119
0.8093827500869047 0.8093827500869047 0.8093827500869047
0.811682569320735 0.811682569320735 0.811682569320735
0.81393857999271 0.81393857999271 0.81393857999271
0.8161524199413374 0.8161524199413374 0.8161524199413374
0.8183256368392202 0.8183256368392202 0.8183256368392202
0.8204596946923478 0.8204596946923478 0.8204596946923478
0.8225559797641397 0.8225559797641397 0.8225559797641397
0.82461580598428 0.82461580598428 0.82461580598428
0.826640419895192 0.826640419895192 0.826640419895192
0.8286310051827871 0.8286310051827871 0.8286310051827871
0.8305886868327205 0.8305886868327205 0.8305886868327205
0.8325145349486985 0.8325145349486985 0.8325145349486985
0.8344095682652818 0.8344095682652818 0.8344095682652818
0.8362747573840579 0.8362747573840579 0.8362747573840579
0.8381110277589177 0.8381110277589177 0.8381110277589177
0.8399192624534236 0.8399192624534236 0.8399192624534236
0.8417003046908336 0.8417003046908336 0.8417003046908336
0.8434549602152139 0.8434549602152139 0.8434549602152139
0.8451839994801915 0.8451839994801915 0.8451839994801915
0.8468881596802256 0.8468881596802256 0.8468881596802256
0.848568146637804 0.848568146637804 0.848568146637804
0.8502246365586545 0.8502246365586545 0.8502246365586545
0.8518582776658973 0.8518582776658973 0.8518582776658973
0.8534696917230195 0.8534696917230195 0.8534696917230195
0.8550594754546283 0.8550594754546283 0.8550594754546283
0.8566282018731071 0.8566282018731071 0.8566282018731071
0.8581764215185537 0.8581764215185537 0.8581764215185537
0.8597046636187177 0.8597046636187177 0.8597046636187177
0.8612134371750492 0.8612134371750492 0.8612134371750492
0.8627032319804383 0.8627032319804383 0.8627032319804383
0.8641745195737367 0.8641745195737367 0.8641745195737367
0.8656277541357138 0.8656277541357138 0.8656277541357138
0.8670633733307108 0.8670633733307108 0.8670633733307108
0.8684817990978908 0.8684817990978908 0.8684817990978908
0.8698834383956684 0.8698834383956684 0.8698834383956684
0.8712686839025998 0.8712686839025998 0.8712686839025998
0.8726379146777598 0.8726379146777598 0.8726379146777598
0.873991496783377 0.873991496783377 0.873991496783377
0.8753297838722931 0.8753297838722931 0.8753297838722931
0.876653117742599 0.876653117742599 0.876653117742599
0.8779618288616271 0.8779618288616271 0.8779618288616271
0.8792562368613082 0.8792562368613082 0.8792562368613082
0.8805366510067515 0.8805366510067515 0.8805366510067515
0.8818033706397644 0.8818033706397644 0.8818033706397644
0.8830566855989058 0.8830566855989058 0.8830566855989058
0.8842968766175446 0.8842968766175446 0.8842968766175446
0.8855242157012929 0.8855242157012929 0.8855242157012929
0.8867389664860829 0.8867389664860829 0.8867389664860829
0.8879413845780662 0.8879413845780662 0.8879413845780662
0.8891317178764316 0.8891317178764316 0.8891317178764316
0.8903102068801626 0.8903102068801626 0.8903102068801626
0.8914770849796813 0.8914770849796813 0.8914770849796813
0.8926325787342667 0.8926325787342667 0.8926325787342667
0.8937769081360698 0.8937769081360698 0.8937769081360698
0.8949102868614961 0.8949102868614961 0.8949102868614961
0.8960329225106735 0.8960329225106735 0.8960329225106735
0.8971450168356772 0.8971450168356772 0.8971450168356772
0.8982467659581391 0.8982467659581391 0.8982467659581391
0.8993383605768287 0.8993383605768287 0.8993383605768287
0.9004199861657551 0.9004199861657551 0.9004199861657551
0.9014918231633049 0.9014918231633049 0.9014918231633049
0.9025540471528974 0.9025540471528974 0.9025540471528974
0.9036068290356116 0.9036068290356116 0.9036068290356116
0.9046503351952075 0.9046503351952075 0.9046503351952075
0.9056847276559411 0.9056847276559411 0.9056847276559411
0.9067101642335472 0.9067101642335472 0.9067101642335472
0.9077267986797425 0.9077267986797425 0.9077267986797425
0.9087347808205786 0.9087347808205786 0.9087347808205786
0.9097342566889581 0.9097342566889581 0.9097342566889581
0.9107253686516055 0.9107253686516055 0.9107253686516055
0.9117082555307684 0.9117082555307684 0.9117082555307684
0.9126830527209124 0.9126830527209124 0.9126830527209124
0.913649892300651 0.913649892300651 0.913649892300651
0.9146089031401444 0.9146089031401444 0.9146089031401444
0.9155602110041849 0.9155602110041849 0.9155602110041849
0.916503938651176 0.916503938651176 0.916503938651176
0.9174402059281966 0.9174402059281966 0.9174402059281966
0.9183691298623413 0.9183691298623413 0.9183691298623413
0.9192908247485022 0.9192908247485022 0.9192908247485022
0.9202054022337638 0.9202054022337638 0.9202054022337638
0.9211129713985641 0.9211129713985641 0.9211129713985641
0.922013638834769 0.922013638834769 0.922013638834769
0.9229075087208004 0.9229075087208004 0.9229075087208004
0.9237946828939513 0.9237946828939513 0.9237946828939513
0.9246752609200114 0.9246752609200114 0.9246752609200114
0.9255493401603243 0.9255493401603243 0.9255493401603243
0.9264170158363879 0.9264170158363879 0.9264170158363879
0.927278381092106 0.927278381092106 0.927278381092106
0.9281335270537918 0.9281335270537918 0.9281335270537918
0.9289825428880214 0.9289825428880214 0.9289825428880214
0.9298255158574283 0.9298255158574283 0.9298255158574283
0.9306625313745256 0.9306625313745256 0.9306625313745256
0.9314936730536408 0.9314936730536408 0.9314936730536408
0.9323190227610403 0.9323190227610403 0.9323190227610403
0.9331386606633189 0.9331386606633189 0.9331386606633189
0.933952665274128 0.933952665274128 0.933952665274128
0.9347611134993072 0.9347611134993072 0.9347611134993072
0.9355640806804874 0.9355640806804874 0.9355640806804874
0.9363616406372244 0.9363616406372244 0.9363616406372244
0.9371538657077247 0.9371538657077247 0.9371538657077247
0.9379408267882172 0.9379408267882172 0.9379408267882172
0.9387225933710259 0.9387225933710259 0.9387225933710259
0.9394992335813946 0.9394992335813946 0.9394992335813946
0.9402708142131112 0.9402708142131112 0.9402708142131112
0.94103740076298 0.94103740076298 0.94103740076298
0.9417990574641851 0.9417990574641851 0.9417990574641851
0.9425558473185875 0.9425558473185875 0.9425558473185875
0.9433078321279982 0.9433078321279982 0.9433078321279982
0.9440550725244627 0.9440550725244627 0.9440550725244627
0.9447976279995985 0.9447976279995985 0.9447976279995985
0.9455355569330164 0.9455355569330164 0.9455355569330164
0.9462689166198631 0.9462689166198631 0.9462689166198631
0.9469977632975166 0.9469977632975166 0.9469977632975166
0.9477221521714642 0.9477221521714642 0.9477221521714642
0.9484421374403945 0.9484421374403945 0.9484421374403945
0.9491577723205314 0.9491577723205314 0.9491577723205314
0.9498691090692375 0.9498691090692375 0.9498691090692375
0.9505761990079113 0.9505761990079113 0.9505761990079113
0.9512790925442081 0.9512790925442081 0.9512790925442081
0.9519778391936022 0.9519778391936022 0.9519778391936022
0.9526724876003188 0.9526724876003188 0.9526724876003188
0.953363085557654 0.953363085557654 0.953363085557654
0.9540496800277082 0.9540496800277082 0.9540496800277082
0.9547323171605484 0.9547323171605484 0.9547323171605484
0.9554110423128224 0.9554110423128224 0.9554110423128224
0.9560859000658428 0.9560859000658428 0.9560859000658428
0.9567569342431586 0.9567569342431586 0.9567569342431586
0.9574241879276323 0.9574241879276323 0.9574241879276323
0.9580877034780367 0.9580877034780367 0.9580877034780367
0.9587475225451925 0.9587475225451925 0.9587475225451925
0.9594036860876558 0.9594036860876558 0.9594036860876558
0.9600562343869758 0.9600562343869758 0.9600562343869758
0.9607052070625326 0.9607052070625326 0.9607052070625326
0.9613506430859722 0.9613506430859722 0.9613506430859722
0.9619925807952501 0.9619925807952501 0.9619925807952501
0.9626310579082938 0.9626310579082938 0.9626310579082938
0.9632661115363046 0.9632661115363046 0.9632661115363046
0.9638977781966979 0.9638977781966979 0.9638977781966979
0.9645260938257056 0.9645260938257056 0.9645260938257056
0.965151093790643 0.965151093790643 0.965151093790643
0.9657728129018555 0.9657728129018555 0.9657728129018555
0.9663912854243514 0.9663912854243514 0.9663912854243514
0.967006545089135 0.967006545089135 0.967006545089135
0.9676186251042446 0.9676186251042446 0.9676186251042446
0.9682275581655083 0.9682275581655083 0.9682275581655083
0.9688333764670235 0.9688333764670235 0.9688333764670235
0.9694361117113711 0.9694361117113711 0.9694361117113711
0.9700357951195696 0.9700357951195696 0.9700357951195696
0.9706324574407798 0.9706324574407798 0.9706324574407798
0.9712261289617652 0.9712261289617652 0.9712261289617652
0.9718168395161177 0.9718168395161177 0.9718168395161177
0.9724046184932531 0.9724046184932531 0.9724046184932531
0.9729894948471846 0.9729894948471846 0.9729894948471846
0.9735714971050826 0.9735714971050826 0.9735714971050826
0.974150653375622 0.974150653375622 0.974150653375622
0.9747269913571296 0.9747269913571296 0.9747269913571296
0.9753005383455322 0.9753005383455322 0.9753005383455322
0.9758713212421137 0.9758713212421137 0.9758713212421137
0.9764393665610865 0.9764393665610865 0.9764393665610865
0.9770047004369817 0.9770047004369817 0.9770047004369817
0.9775673486318643 0.9775673486318643 0.9775673486318643
0.9781273365423775 0.9781273365423775 0.9781273365423775
0.9786846892066208 0.9786846892066208 0.9786846892066208
0.9792394313108682 0.9792394313108682 0.9792394313108682
0.9797915871961286 0.9797915871961286 0.9797915871961286
0.9803411808645552 0.9803411808645552 0.9803411808645552
0.9808882359857046 0.9808882359857046 0.9808882359857046
0.9814327759026558 0.9814327759026558 0.9814327759026558
0.9819748236379849 0.9819748236379849 0.9819748236379849
0.982514401899607 0.982514401899607 0.982514401899607
0.9830515330864839 0.9830515330864839 0.9830515330864839
0.9835862392942033 0.9835862392942033 0.9835862392942033
0.9841185423204338 0.9841185423204338 0.9841185423204338
0.984648463670255 0.984648463670255 0.984648463670255
0.9851760245613722 0.9851760245613722 0.9851760245613722
0.9857012459292138 0.9857012459292138 0.9857012459292138
0.9862241484319155 0.9862241484319155 0.9862241484319155
0.9867447524551967 0.9867447524551967 0.9867447524551967
0.9872630781171289 0.9872630781171289 0.9872630781171289
0.9877791452728006 0.9877791452728006 0.9877791452728006
0.9882929735188818 0.9882929735188818 0.9882929735188818
0.9888045821980879 0.9888045821980879 0.9888045821980879
0.9893139904035492 0.9893139904035492 0.9893139904035492
0.9898212169830874 0.9898212169830874 0.9898212169830874
0.9903262805433989 0.9903262805433989 0.9903262805433989
0.9908291994541508 0.9908291994541508 0.9908291994541508
0.9913299918519899 0.9913299918519899 0.9913299918519899
0.9918286756444676 0.9918286756444676 0.9918286756444676
0.9923252685138813 0.9923252685138813 0.9923252685138813
0.9928197879210371 0.9928197879210371 0.9928197879210371
0.9933122511089343 0.9933122511089343 0.9933122511089343
0.9938026751063713 0.9938026751063713 0.9938026751063713
0.9942910767314809 0.9942910767314809 0.9942910767314809
0.9947774725951888 0.9947774725951888 0.9947774725951888
0.9952618791046056 0.9952618791046056 0.9952618791046056
0.9957443124663459 0.9957443124663459 0.9957443124663459
0.9962247886897828 0.9962247886897828 0.9962247886897828
0.9967033235902357 0.9967033235902357 0.9967033235902357
0.9971799327920932 0.9971799327920932 0.9971799327920932
0.9976546317318744 0.9976546317318744 0.9976546317318744
0.99812743566123 0.99812743566123 0.99812743566123
0.9985983596498805 0.9985983596498805 0.9985983596498805
0.9990674185884997 0.9990674185884997 0.9990674185884997
0.9995346271915394 0.9995346271915394 0.9995346271915394
1.0 1.0 1.0