luts/lut_arcsinh_stretch_65.cube
TITLE "Arcsinh_Stretch_65"
LUT_1D_SIZE 256
DOMAIN_MIN 0.0 0.0 0.0
DOMAIN_MAX 1.0 1.0 1.0
0.0 0.0 0.0
0.1939426140095849 0.1939426140095849 0.1939426140095849
0.28811694365092805 0.28811694365092805 0.28811694365092805
0.34626487677239 0.34626487677239 0.34626487677239
0.3880978543819351 0.3880978543819351 0.3880978543819351
0.4207272365753586 0.4207272365753586 0.4207272365753586
0.44746178586067026 0.44746178586067026 0.44746178586067026
0.4701015618414273 0.4701015618414273 0.4701015618414273
0.48973256590735986 0.48973256590735986 0.48973256590735986
0.5070598381569847 0.5070598381569847 0.5070598381569847
0.5225668163185054 0.5225668163185054 0.5225668163185054
0.5365993265162947 0.5365993265162947 0.5365993265162947
0.5494132525585733 0.5494132525585733 0.5494132525585733
0.5612032206900173 0.5612032206900173 0.5612032206900173
0.57212069881795 0.57212069881795 0.57212069881795
0.5822858737008043 0.5822858737008043 0.5822858737008043
0.5917957068141674 0.5917957068141674 0.5917957068141674
0.6007295545831703 0.6007295545831703 0.6007295545831703
0.6091531860232668 0.6091531860232668 0.6091531860232668
0.6171217164365429 0.6171217164365429 0.6171217164365429
0.6246817900521237 0.6246817900521237 0.6246817900521237
0.631873231059452 0.631873231059452 0.631873231059452
0.6387303111640114 0.6387303111640114 0.6387303111640114
0.6452827357854322 0.6452827357854322 0.6452827357854322
0.6515564206441644 0.6515564206441644 0.6515564206441644
0.6575741100115668 0.6575741100115668 0.6575741100115668
0.6633558738401325 0.6633558738401325 0.6633558738401325
0.6689195111708521 0.6689195111708521 0.6689195111708521
0.6742808802481938 0.6742808802481938 0.6742808802481938
0.6794541707599958 0.6794541707599958 0.6794541707599958
0.6844521299645009 0.6844521299645009 0.6844521299645009
0.6892862517694655 0.6892862517694655 0.6892862517694655
0.693966935815417 0.693966935815417 0.693966935815417
0.6985036220973185 0.6985036220973185 0.6985036220973185
0.7029049055032717 0.7029049055032717 0.7029049055032717
0.7071786337610411 0.7071786337610411 0.7071786337610411
0.7113319915952686 0.7113319915952686 0.7113319915952686
0.7153715733610121 0.7153715733610121 0.7153715733610121
0.7193034459965543 0.7193034459965543 0.7193034459965543
0.7231332038035113 0.7231332038035113 0.7231332038035113
0.7268660162951541 0.7268660162951541 0.7268660162951541
0.7305066701394743 0.7305066701394743 0.7305066701394743
0.7340596060504485 0.7340596060504485 0.7340596060504485
0.737528951340448 0.737528951340448 0.737528951340448
0.7409185487320527 0.7409185487320527 0.7409185487320527
0.7442319819334594 0.7442319819334594 0.7442319819334594
0.7474725984041329 0.7474725984041329 0.7474725984041329
0.7506435296731423 0.7506435296731423 0.7506435296731423
0.7537477095192312 0.7537477095192312 0.7537477095192312
0.756787890277079 0.756787890277079 0.756787890277079
0.7597666574968229 0.7597666574968229 0.7597666574968229
0.7626864431524443 0.7626864431524443 0.7626864431524443
0.7655495375680448 0.7655495375680448 0.7655495375680448
0.7683581002085058 0.7683581002085058 0.7683581002085058
0.7711141694618607 0.7711141694618607 0.7711141694618607
0.7738196715243628 0.7738196715243628 0.7738196715243628
0.7764764284852331 0.7764764284852331 0.7764764284852331
0.7790861656960639 0.7790861656960639 0.7790861656960639
0.781650518499505 0.781650518499505 0.781650518499505
0.784171038382938 0.784171038382938 0.784171038382938
0.7866491986151134 0.7866491986151134 0.7866491986151134
0.7890863994170145 0.7890863994170145 0.7890863994170145
0.7914839727123866 0.7914839727123866 0.7914839727123866
0.7938431864982737 0.7938431864982737 0.7938431864982737
0.7961652488714637 0.7961652488714637 0.7961652488714637
0.7984513117428456 0.7984513117428456 0.7984513117428456
0.8007024742682628 0.8007024742682628 0.8007024742682628
0.8029197860214374 0.8029197860214374 0.8029197860214374
0.805104249931891 0.805104249931891 0.805104249931891
0.8072568250084418 0.8072568250084418 0.8072568250084418
0.809378428866789 0.809378428866789 0.809378428866789
0.8114699400778536 0.8114699400778536 0.8114699400778536
0.8135322003519165 0.8135322003519165 0.8135322003519165
0.8155660165721432 0.8155660165721432 0.8155660165721432
0.8175721626897838 0.8175721626897838 0.8175721626897838
0.8195513814921926 0.8195513814921926 0.8195513814921926
0.8215043862537708 0.8215043862537708 0.8215043862537708
0.8234318622790127 0.8234318622790127 0.8234318622790127
0.8253344683460108 0.8253344683460108 0.8253344683460108
0.8272128380580248 0.8272128380580248 0.8272128380580248
0.8290675811100534 0.8290675811100534 0.8290675811100534
0.8308992844767438 0.8308992844767438 0.8308992844767438
0.8327085135274277 0.8327085135274277 0.8327085135274277
0.8344958130735863 0.8344958130735863 0.8344958130735863
0.8362617083535968 0.8362617083535968 0.8362617083535968
0.8380067059592132 0.8380067059592132 0.8380067059592132
0.8397312947078723 0.8397312947078723 0.8397312947078723
0.84143594646458 0.84143594646458 0.84143594646458
0.8431211169168357 0.8431211169168357 0.8431211169168357
0.8447872463057794 0.8447872463057794 0.8447872463057794
0.8464347601164945 0.8464347601164945 0.8464347601164945
0.8480640697301753 0.8480640697301753 0.8480640697301753
0.8496755730406581 0.8496755730406581 0.8496755730406581
0.8512696550376296 0.8512696550376296 0.8512696550376296
0.8528466883586489 0.8528466883586489 0.8528466883586489
0.8544070338119636 0.8544070338119636 0.8544070338119636
0.8559510408719551 0.8559510408719551 0.8559510408719551
0.8574790481489148 0.8574790481489148 0.8574790481489148
0.8589913838347296 0.8589913838347296 0.8589913838347296
0.8604883661259463 0.8604883661259463 0.8604883661259463
0.8619703036255761 0.8619703036255761 0.8619703036255761
0.8634374957249119 0.8634374957249119 0.8634374957249119
0.8648902329665353 0.8648902329665353 0.8648902329665353
0.8663287973896187 0.8663287973896187 0.8663287973896187
0.8677534628585464 0.8677534628585464 0.8677534628585464
0.8691644953758124 0.8691644953758124 0.8691644953758124
0.870562153380091 0.870562153380091 0.870562153380091
0.8719466880303121 0.8719466880303121 0.8719466880303121
0.8733183434765258 0.8733183434765258 0.8733183434765258
0.8746773571182855 0.8746773571182855 0.8746773571182855
0.8760239598512316 0.8760239598512316 0.8760239598512316
0.8773583763025198 0.8773583763025198 0.8773583763025198
0.8786808250556909 0.8786808250556909 0.8786808250556909
0.8799915188655486 0.8799915188655486 0.8799915188655486
0.8812906648635703 0.8812906648635703 0.8812906648635703
0.8825784647543482 0.8825784647543482 0.8825784647543482
0.8838551150035285 0.8838551150035285 0.8838551150035285
0.8851208070176829 0.8851208070176829 0.8851208070176829
0.886375727316527 0.886375727316527 0.886375727316527
0.8876200576978728 0.8876200576978728 0.8876200576978728
0.8888539753956798 0.8888539753956798 0.8888539753956798
0.8900776532315465 0.8900776532315465 0.8900776532315465
0.8912912597599699 0.8912912597599699 0.8912912597599699
0.8924949594076758 0.8924949594076758 0.8924949594076758
0.8936889126073072 0.8936889126073072 0.8936889126073072
0.894873275925745 0.894873275925745 0.894873275925745
0.8960482021873166 0.8960482021873166 0.8960482021873166
0.8972138405921339 0.8972138405921339 0.8972138405921339
0.8983703368297915 0.8983703368297915 0.8983703368297915
0.8995178331886404 0.8995178331886404 0.8995178331886404
0.9006564686608431 0.9006564686608431 0.9006564686608431
0.9017863790434041 0.9017863790434041 0.9017863790434041
0.9029076970353579 0.9029076970353579 0.9029076970353579
0.9040205523312909 0.9040205523312909 0.9040205523312909
0.9051250717113599 0.9051250717113599 0.9051250717113599
0.9062213791279647 0.9062213791279647 0.9062213791279647
0.9073095957892222 0.9073095957892222 0.9073095957892222
0.9083898402393835 0.9083898402393835 0.9083898402393835
0.9094622284363256 0.9094622284363256 0.9094622284363256
0.9105268738262479 0.9105268738262479 0.9105268738262479
0.911583887415688 0.911583887415688 0.911583887415688
0.9126333778409788 0.9126333778409788 0.9126333778409788
0.9136754514352482 0.9136754514352482 0.9136754514352482
0.9147102122930694 0.9147102122930694 0.9147102122930694
0.9157377623328582 0.9157377623328582 0.9157377623328582
0.9167582013571117 0.9167582013571117 0.9167582013571117
0.9177716271105765 0.9177716271105765 0.9177716271105765
0.9187781353364317 0.9187781353364317 0.9187781353364317
0.9197778198305683 0.9197778198305683 0.9197778198305683
0.9207707724940398 0.9207707724940398 0.9207707724940398
0.9217570833837593 0.9217570833837593 0.9217570833837593
0.9227368407615124 0.9227368407615124 0.9227368407615124
0.9237101311413528 0.9237101311413528 0.9237101311413528
0.9246770393354425 0.9246770393354425 0.9246770393354425
0.9256376484984015 0.9256376484984015 0.9256376484984015
0.926592040170219 0.926592040170219 0.926592040170219
0.9275402943177885 0.9275402943177885 0.9275402943177885
0.9284824893751124 0.9284824893751124 0.9284824893751124
0.9294187022822327 0.9294187022822327 0.9294187022822327
0.9303490085229327 0.9303490085229327 0.9303490085229327
0.9312734821612567 0.9312734821612567 0.9312734821612567
0.9321921958768932 0.9321921958768932 0.9321921958768932
0.9331052209994602 0.9331052209994602 0.9331052209994602
0.9340126275417391 0.9340126275417391 0.9340126275417391
0.9349144842318888 0.9349144842318888 0.9349144842318888
0.935810858544683 0.935810858544683 0.935810858544683
0.9367018167318029 0.9367018167318029 0.9367018167318029
0.9375874238512202 0.9375874238512202 0.9375874238512202
0.9384677437957033 0.9384677437957033 0.9384677437957033
0.9393428393204777 0.9393428393204777 0.9393428393204777
0.9402127720700698 0.9402127720700698 0.9402127720700698
0.9410776026043642 0.9410776026043642 0.9410776026043642
0.9419373904239013 0.9419373904239013 0.9419373904239013
0.9427921939944413 0.9427921939944413 0.9427921939944413
0.9436420707708201 0.9436420707708201 0.9436420707708201
0.9444870772201227 0.9444870772201227 0.9444870772201227
0.9453272688441954 0.9453272688441954 0.9453272688441954
0.9461627002015206 0.9461627002015206 0.9461627002015206
0.946993424928475 0.946993424928475 0.946993424928475
0.9478194957599939 0.9478194957599939 0.9478194957599939
0.9486409645496574 0.9486409645496574 0.9486409645496574
0.9494578822892229 0.9494578822892229 0.9494578822892229
0.9502702991276163 0.9502702991276163 0.9502702991276163
0.9510782643894076 0.9510782643894076 0.9510782643894076
0.9518818265927772 0.9518818265927772 0.9518818265927772
0.9526810334670007 0.9526810334670007 0.9526810334670007
0.9534759319694592 0.9534759319694592 0.9534759319694592
0.9542665683021941 0.9542665683021941 0.9542665683021941
0.9550529879280217 0.9550529879280217 0.9550529879280217
0.955835235586219 0.955835235586219 0.955835235586219
0.9566133553077958 0.9566133553077958 0.9566133553077958
0.9573873904303669 0.9573873904303669 0.9573873904303669
0.9581573836126354 0.9581573836126354 0.9581573836126354
0.958923376848499 0.958923376848499 0.958923376848499
0.9596854114807932 0.9596854114807932 0.9596854114807932
0.9604435282146812 0.9604435282146812 0.9604435282146812
0.9611977671306989 0.9611977671306989 0.9611977671306989
0.961948167697472 0.961948167697472 0.961948167697472
0.9626947687841073 0.9626947687841073 0.9626947687841073
0.9634376086722749 0.9634376086722749 0.9634376086722749
0.9641767250679849 0.9641767250679849 0.9641767250679849
0.9649121551130727 0.9649121551130727 0.9649121551130727
0.9656439353963984 0.9656439353963984 0.9656439353963984
0.9663721019647689 0.9663721019647689 0.9663721019647689
0.9670966903335935 0.9670966903335935 0.9670966903335935
0.9678177354972765 0.9678177354972765 0.9678177354972765
0.9685352719393598 0.9685352719393598 0.9685352719393598
0.9692493336424173 0.9692493336424173 0.9692493336424173
0.9699599540977125 0.9699599540977125 0.9699599540977125
0.9706671663146241 0.9706671663146241 0.9706671663146241
0.9713710028298463 0.9713710028298463 0.9713710028298463
0.9720714957163712 0.9720714957163712 0.9720714957163712
0.972768676592258 0.972768676592258 0.972768676592258
0.9734625766291967 0.9734625766291967 0.9734625766291967
0.9741532265608711 0.9741532265608711 0.9741532265608711
0.9748406566911262 0.9748406566911262 0.9748406566911262
0.9755248969019468 0.9755248969019468 0.9755248969019468
0.9762059766612519 0.9762059766612519 0.9762059766612519
0.9768839250305088 0.9768839250305088 0.9768839250305088
0.9775587706721748 0.9775587706721748 0.9775587706721748
0.9782305418569679 0.9782305418569679 0.9782305418569679
0.9788992664709731 0.9788992664709731 0.9788992664709731
0.9795649720225882 0.9795649720225882 0.9795649720225882
0.9802276856493141 0.9802276856493141 0.9802276856493141
0.9808874341243919 0.9808874341243919 0.9808874341243919
0.9815442438632941 0.9815442438632941 0.9815442438632941
0.98219814093007 0.98219814093007 0.98219814093007
0.9828491510435516 0.9828491510435516 0.9828491510435516
0.9834972995834242 0.9834972995834242 0.9834972995834242
0.9841426115961628 0.9841426115961628 0.9841426115961628
0.9847851118008387 0.9847851118008387 0.9847851118008387
0.9854248245948031 0.9854248245948031 0.9854248245948031
0.9860617740592441 0.9860617740592441 0.9860617740592441
0.9866959839646272 0.9866959839646272 0.9866959839646272
0.9873274777760171 0.9873274777760171 0.9873274777760171
0.9879562786582884 0.9879562786582884 0.9879562786582884
0.9885824094812228 0.9885824094812228 0.9885824094812228
0.9892058928245012 0.9892058928245012 0.9892058928245012
0.989826750982589 0.989826750982589 0.989826750982589
0.9904450059695202 0.9904450059695202 0.9904450059695202
0.9910606795235799 0.9910606795235799 0.9910606795235799
0.9916737931118915 0.9916737931118915 0.9916737931118915
0.9922843679349074 0.9922843679349074 0.9922843679349074
0.9928924249308083 0.9928924249308083 0.9928924249308083
0.9934979847798104 0.9934979847798104 0.9934979847798104
0.9941010679083873 0.9941010679083873 0.9941010679083873
0.9947016944934021 0.9947016944934021 0.9947016944934021
0.9952998844661602 0.9952998844661602 0.9952998844661602
0.9958956575163763 0.9958956575163763 0.9958956575163763
0.9964890330960635 0.9964890330960635 0.9964890330960635
0.9970800304233444 0.9970800304233444 0.9970800304233444
0.9976686684861854 0.9976686684861854 0.9976686684861854
0.9982549660460579 0.9982549660460579 0.9982549660460579
0.9988389416415258 0.9988389416415258 0.9988389416415258
0.9994206135917626 0.9994206135917626 0.9994206135917626
1.0 1.0 1.0