luts/lut_arcsinh_stretch_40.cube
TITLE "Arcsinh_Stretch_40"
LUT_1D_SIZE 256
DOMAIN_MIN 0.0 0.0 0.0
DOMAIN_MAX 1.0 1.0 1.0
0.0 0.0 0.0
0.1389710800388713 0.1389710800388713 0.1389710800388713
0.2287322379178144 0.2287322379178144 0.2287322379178144
0.2888721865663072 0.2888721865663072 0.2888721865663072
0.33328090035815233 0.33328090035815233 0.33328090035815233
0.3683077950609302 0.3683077950609302 0.3683077950609302
0.39717177328281517 0.39717177328281517 0.39717177328281517
0.42169622390318906 0.42169622390318906 0.42169622390318906
0.44300604058395104 0.44300604058395104 0.44300604058395104
0.46184154931779087 0.46184154931779087 0.46184154931779087
0.47871495900105415 0.47871495900105415 0.47871495900105415
0.49399496399217685 0.49399496399217685 0.49399496399217685
0.5079555974967822 0.5079555974967822 0.5079555974967822
0.5208059903655291 0.5208059903655291 0.5208059903655291
0.5327093174486303 0.5327093174486303 0.5327093174486303
0.5437953155946953 0.5437953155946953 0.5437953155946953
0.5541688191423004 0.5541688191423004 0.5541688191423004
0.5639157397606088 0.5639157397606088 0.5639157397606088
0.5731073556207932 0.5731073556207932 0.5731073556207932
0.5818034520363933 0.5818034520363933 0.5818034520363933
0.5900546634307225 0.5900546634307225 0.5900546634307225
0.5979042483001217 0.5979042483001217 0.5979042483001217
0.6053894541356415 0.6053894541356415 0.6053894541356415
0.6125425808535621 0.6125425808535621 0.6125425808535621
0.6193918192033919 0.6193918192033919 0.6193918192033919
0.6259619189291077 0.6259619189291077 0.6259619189291077
0.632274726520675 0.632274726520675 0.632274726520675
0.63834962193272 0.63834962193272 0.63834962193272
0.6442038762106197 0.6442038762106197 0.6442038762106197
0.6498529466028489 0.6498529466028489 0.6498529466028489
0.655310721823035 0.655310721823035 0.655310721823035
0.6605897272315453 0.6605897272315453 0.6605897272315453
0.6657012975442594 0.6657012975442594 0.6657012975442594
0.6706557230438631 0.6706557230438631 0.6706557230438631
0.6754623740249072 0.6754623740249072 0.6754623740249072
0.6801298072471343 0.6801298072471343 0.6801298072471343
0.684665857429671 0.684665857429671 0.684665857429671
0.6890777162388162 0.6890777162388162 0.6890777162388162
0.6933720007656112 0.6933720007656112 0.6933720007656112
0.6975548131273918 0.6975548131273918 0.6975548131273918
0.7016317925386545 0.7016317925386545 0.7016317925386545
0.7056081609645963 0.7056081609645963 0.7056081609645963
0.7094887632833177 0.7094887632833177 0.7094887632833177
0.7132781027304925 0.7132781027304925 0.7132781027304925
0.7169803722760472 0.7169803722760472 0.7169803722760472
0.7205994824804108 0.7205994824804108 0.7205994824804108
0.7241390862938217 0.7241390862938217 0.7241390862938217
0.7276026011925248 0.7276026011925248 0.7276026011925248
0.7309932289877555 0.7309932289877555 0.7309932289877555
0.7343139735950057 0.7343139735950057 0.7343139735950057
0.7375676570104748 0.7375676570104748 0.7375676570104748
0.7407569337074384 0.7407569337074384 0.7407569337074384
0.7438843036363894 0.7438843036363894 0.7438843036363894
0.7469521239883291 0.7469521239883291 0.7469521239883291
0.7499626198597635 0.7499626198597635 0.7499626198597635
0.7529178939401789 0.7529178939401789 0.7529178939401789
0.7558199353275658 0.7558199353275658 0.7558199353275658
0.7586706275644893 0.7586706275644893 0.7586706275644893
0.7614717559759616 0.7614717559759616 0.7614717559759616
0.7642250143806559 0.7642250143806559 0.7642250143806559
0.7669320112385976 0.7669320112385976 0.7669320112385976
0.7695942752911665 0.7695942752911665 0.7695942752911665
0.7722132607429021 0.7722132607429021 0.7722132607429021
0.7747903520290569 0.7747903520290569 0.7747903520290569
0.7773268682080119 0.7773268682080119 0.7773268682080119
0.7798240670134209 0.7798240670134209 0.7798240670134209
0.7822831485972324 0.7822831485972324 0.7822831485972324
0.7847052589914557 0.7847052589914557 0.7847052589914557
0.7870914933136574 0.7870914933136574 0.7870914933136574
0.7894428987386167 0.7894428987386167 0.7894428987386167
0.7917604772563168 0.7917604772563168 0.7917604772563168
0.7940451882344413 0.7940451882344413 0.7940451882344413
0.7962979508017721 0.7962979508017721 0.7962979508017721
0.798519646067303 0.798519646067303 0.798519646067303
0.8007111191884678 0.8007111191884678 0.8007111191884678
0.8028731813006329 0.8028731813006329 0.8028731813006329
0.8050066113188679 0.8050066113188679 0.8050066113188679
0.8071121576220115 0.8071121576220115 0.8071121576220115
0.8091905396281367 0.8091905396281367 0.8091905396281367
0.8112424492697118 0.8112424492697118 0.8112424492697118
0.8132685523760261 0.8132685523760261 0.8132685523760261
0.8152694899697868 0.8152694899697868 0.8152694899697868
0.8172458794842015 0.8172458794842015 0.8172458794842015
0.8191983159063294 0.8191983159063294 0.8191983159063294
0.8211273728519957 0.8211273728519957 0.8211273728519957
0.823033603577124 0.823033603577124 0.823033603577124
0.824917541929951 0.824917541929951 0.824917541929951
0.8267797032482194 0.8267797032482194 0.8267797032482194
0.8286205852051187 0.8286205852051187 0.8286205852051187
0.8304406686074544 0.8304406686074544 0.8304406686074544
0.8322404181492364 0.8322404181492364 0.8322404181492364
0.8340202831236512 0.8340202831236512 0.8340202831236512
0.8357806980961378 0.8357806980961378 0.8357806980961378
0.8375220835410957 0.8375220835410957 0.8375220835410957
0.8392448464445531 0.8392448464445531 0.8392448464445531
0.8409493808749577 0.8409493808749577 0.8409493808749577
0.8426360685240935 0.8426360685240935 0.8426360685240935
0.8443052792199771 0.8443052792199771 0.8443052792199771
0.8459573714134617 0.8459573714134617 0.8459573714134617
0.8475926926401448 0.8475926926401448 0.8475926926401448
0.8492115799590724 0.8492115799590724 0.8492115799590724
0.8508143603696228 0.8508143603696228 0.8508143603696228
0.852401351207859 0.852401351207859 0.852401351207859
0.8539728605235531 0.8539728605235531 0.8539728605235531
0.8555291874390006 0.8555291874390006 0.8555291874390006
0.8570706224906709 0.8570706224906709 0.8570706224906709
0.8585974479546702 0.8585974479546702 0.8585974479546702
0.8601099381569284 0.8601099381569284 0.8601099381569284
0.861608359768961 0.861608359768961 0.861608359768961
0.8630929720900057 0.8630929720900057 0.8630929720900057
0.8645640273162786 0.8645640273162786 0.8645640273162786
0.8660217707980492 0.8660217707980492 0.8660217707980492
0.8674664412851905 0.8674664412851905 0.8674664412851905
0.8688982711618177 0.8688982711618177 0.8688982711618177
0.870317486670593 0.870317486670593 0.870317486670593
0.8717243081272367 0.8717243081272367 0.8717243081272367
0.8731189501257547 0.8731189501257547 0.8731189501257547
0.8745016217348601 0.8745016217348601 0.8745016217348601
0.8758725266860365 0.8758725266860365 0.8758725266860365
0.8772318635536693 0.8772318635536693 0.8772318635536693
0.8785798259276408 0.8785798259276408 0.8785798259276408
0.8799166025787651 0.8799166025787651 0.8799166025787651
0.8812423776174164 0.8812423776174164 0.8812423776174164
0.8825573306456836 0.8825573306456836 0.8825573306456836
0.8838616369033662 0.8838616369033662 0.8838616369033662
0.8851554674081074 0.8851554674081074 0.8851554674081074
0.8864389890899461 0.8864389890899461 0.8864389890899461
0.8877123649205507 0.8877123649205507 0.8877123649205507
0.8889757540373858 0.8889757540373858 0.8889757540373858
0.8902293118630492 0.8902293118630492 0.8902293118630492
0.8914731902200006 0.8914731902200006 0.8914731902200006
0.8927075374408963 0.8927075374408963 0.8927075374408963
0.8939324984747297 0.8939324984747297 0.8939324984747297
0.8951482149889657 0.8951482149889657 0.8951482149889657
0.8963548254678516 0.8963548254678516 0.8963548254678516
0.8975524653070732 0.8975524653070732 0.8975524653070732
0.8987412669049196 0.8987412669049196 0.8987412669049196
0.8999213597501071 0.8999213597501071 0.8999213597501071
0.9010928705064124 0.9010928705064124 0.9010928705064124
0.9022559230942493 0.9022559230942493 0.9022559230942493
0.9034106387693223 0.9034106387693223 0.9034106387693223
0.9045571361984813 0.9045571361984813 0.9045571361984813
0.9056955315328973 0.9056955315328973 0.9056955315328973
0.9068259384786693 0.9068259384786693 0.9068259384786693
0.9079484683649724 0.9079484683649724 0.9079484683649724
0.9090632302098484 0.9090632302098484 0.9090632302098484
0.9101703307837344 0.9101703307837344 0.9101703307837344
0.9112698746708258 0.9112698746708258 0.9112698746708258
0.9123619643283561 0.9123619643283561 0.9123619643283561
0.9134467001438853 0.9134467001438853 0.9134467001438853
0.9145241804906681 0.9145241804906681 0.9145241804906681
0.9155945017811863 0.9155945017811863 0.9155945017811863
0.9166577585189126 0.9166577585189126 0.9166577585189126
0.9177140433483786 0.9177140433483786 0.9177140433483786
0.9187634471036114 0.9187634471036114 0.9187634471036114
0.9198060588550028 0.9198060588550028 0.9198060588550028
0.9208419659546725 0.9208419659546725 0.9208419659546725
0.9218712540803812 0.9218712540803812 0.9218712540803812
0.9228940072780503 0.9228940072780503 0.9228940072780503
0.9239103080029397 0.9239103080029397 0.9239103080029397
0.9249202371595366 0.9249202371595366 0.9249202371595366
0.9259238741401998 0.9259238741401998 0.9259238741401998
0.9269212968626088 0.9269212968626088 0.9269212968626088
0.9279125818060604 0.9279125818060604 0.9279125818060604
0.9288978040466557 0.9288978040466557 0.9288978040466557
0.9298770372914176 0.9298770372914176 0.9298770372914176
0.9308503539113773 0.9308503539113773 0.9308503539113773
0.9318178249736677 0.9318178249736677 0.9318178249736677
0.932779520272659 0.932779520272659 0.932779520272659
0.9337355083601703 0.9337355083601703 0.9337355083601703
0.9346858565747891 0.9346858565747891 0.9346858565747891
0.9356306310703336 0.9356306310703336 0.9356306310703336
0.9365698968434821 0.9365698968434821 0.9365698968434821
0.9375037177606046 0.9375037177606046 0.9375037177606046
0.9384321565838187 0.9384321565838187 0.9384321565838187
0.9393552749963007 0.9393552749963007 0.9393552749963007
0.9402731336268751 0.9402731336268751 0.9402731336268751
0.9411857920739075 0.9411857920739075 0.9411857920739075
0.942093308928524 0.942093308928524 0.942093308928524
0.9429957417971815 0.9429957417971815 0.9429957417971815
0.9438931473236085 0.9438931473236085 0.9438931473236085
0.944785581210138 0.944785581210138 0.944785581210138
0.9456730982384536 0.9456730982384536 0.9456730982384536
0.9465557522897662 0.9465557522897662 0.9465557522897662
0.947433596364442 0.947433596364442 0.947433596364442
0.9483066826010981 0.9483066826010981 0.9483066826010981
0.949175062295183 0.949175062295183 0.949175062295183
0.9500387859170598 0.9500387859170598 0.9500387859170598
0.9508979031296075 0.9508979031296075 0.9508979031296075
0.9517524628053534 0.9517524628053534 0.9517524628053534
0.9526025130431567 0.9526025130431567 0.9526025130431567
0.9534481011844508 0.9534481011844508 0.9534481011844508
0.9542892738290646 0.9542892738290646 0.9542892738290646
0.9551260768506308 0.9551260768506308 0.9551260768506308
0.955958555411597 0.955958555411597 0.955958555411597
0.9567867539778506 0.9567867539778506 0.9567867539778506
0.9576107163329702 0.9576107163329702 0.9576107163329702
0.9584304855921139 0.9584304855921139 0.9584304855921139
0.9592461042155553 0.9592461042155553 0.9592461042155553
0.9600576140218811 0.9600576140218811 0.9600576140218811
0.9608650562008549 0.9608650562008549 0.9608650562008549
0.9616684713259619 0.9616684713259619 0.9616684713259619
0.9624678993666428 0.9624678993666428 0.9624678993666428
0.9632633797002232 0.9632633797002232 0.9632633797002232
0.9640549511235539 0.9640549511235539 0.9640549511235539
0.964842651864362 0.964842651864362 0.964842651864362
0.9656265195923301 0.9656265195923301 0.9656265195923301
0.9664065914299041 0.9664065914299041 0.9664065914299041
0.9671829039628418 0.9671829039628418 0.9671829039628418
0.9679554932505094 0.9679554932505094 0.9679554932505094
0.9687243948359308 0.9687243948359308 0.9687243948359308
0.9694896437555985 0.9694896437555985 0.9694896437555985
0.9702512745490539 0.9702512745490539 0.9702512745490539
0.9710093212682405 0.9710093212682405 0.9710093212682405
0.9717638174866388 0.9717638174866388 0.9717638174866388
0.9725147963081884 0.9725147963081884 0.9725147963081884
0.9732622903760031 0.9732622903760031 0.9732622903760031
0.9740063318808841 0.9740063318808841 0.9740063318808841
0.974746952569639 0.974746952569639 0.974746952569639
0.9754841837532079 0.9754841837532079 0.9754841837532079
0.9762180563146076 0.9762180563146076 0.9762180563146076
0.9769486007166927 0.9769486007166927 0.9769486007166927
0.9776758470097437 0.9776758470097437 0.9776758470097437
0.9783998248388834 0.9783998248388834 0.9783998248388834
0.9791205634513276 0.9791205634513276 0.9791205634513276
0.9798380917034746 0.9798380917034746 0.9798380917034746
0.9805524380678374 0.9805524380678374 0.9805524380678374
0.9812636306398227 0.9812636306398227 0.9812636306398227
0.981971697144361 0.981971697144361 0.981971697144361
0.9826766649423923 0.9826766649423923 0.9826766649423923
0.9833785610372086 0.9833785610372086 0.9833785610372086
0.9840774120806616 0.9840774120806616 0.9840774120806616
0.9847732443792337 0.9847732443792337 0.9847732443792337
0.9854660838999805 0.9854660838999805 0.9854660838999805
0.9861559562763442 0.9861559562763442 0.9861559562763442
0.9868428868138448 0.9868428868138448 0.9868428868138448
0.9875269004956492 0.9875269004956492 0.9875269004956492
0.9882080219880232 0.9882080219880232 0.9882080219880232
0.9888862756456691 0.9888862756456691 0.9888862756456691
0.9895616855169496 0.9895616855169496 0.9895616855169496
0.9902342753490052 0.9902342753490052 0.9902342753490052
0.9909040685927631 0.9909040685927631 0.9909040685927631
0.9915710884078441 0.9915710884078441 0.9915710884078441
0.9922353576673663 0.9922353576673663 0.9922353576673663
0.9928968989626523 0.9928968989626523 0.9928968989626523
0.9935557346078386 0.9935557346078386 0.9935557346078386
0.9942118866443925 0.9942118866443925 0.9942118866443925
0.9948653768455353 0.9948653768455353 0.9948653768455353
0.9955162267205787 0.9955162267205787 0.9955162267205787
0.9961644575191718 0.9961644575191718 0.9961644575191718
0.9968100902354647 0.9968100902354647 0.9968100902354647
0.9974531456121871 0.9974531456121871 0.9974531456121871
0.9980936441446481 0.9980936441446481 0.9980936441446481
0.9987316060846544 0.9987316060846544 0.9987316060846544
0.9993670514443537 0.9993670514443537 0.9993670514443537
1.0 1.0 1.0