luts/lut_arcsinh_stretch_720.cube
TITLE "Arcsinh_Stretch_720"
LUT_1D_SIZE 256
DOMAIN_MIN 0.0 0.0 0.0
DOMAIN_MAX 1.0 1.0 1.0
0.0 0.0 0.0
0.41836624887571844 0.41836624887571844 0.41836624887571844
0.4910991691797321 0.4910991691797321 0.4910991691797321
0.533656065994944 0.533656065994944 0.533656065994944
0.5638524753857197 0.5638524753857197 0.5638524753857197
0.5872751816114997 0.5872751816114997 0.5872751816114997
0.6064131495414216 0.6064131495414216 0.6064131495414216
0.6225941783748004 0.6225941783748004 0.6225941783748004
0.6366108811619524 0.6366108811619524 0.6366108811619524
0.64897452332099 0.64897452332099 0.64897452332099
0.6600341994194131 0.6600341994194131 0.6600341994194131
0.6700389074212305 0.6700389074212305 0.6700389074212305
0.6791724998184673 0.6791724998184673 0.6791724998184673
0.6875745971275911 0.6875745971275911 0.6875745971275911
0.6953537291227914 0.6953537291227914 0.6953537291227914
0.7025959314204804 0.7025959314204804 0.7025959314204804
0.7093705620243218 0.7093705620243218 0.7093705620243218
0.7157343514384161 0.7157343514384161 0.7157343514384161
0.7217342933898149 0.7217342933898149 0.7217342933898149
0.7274097529503434 0.7274097529503434 0.7274097529503434
0.7327940332973232 0.7327940332973232 0.7327940332973232
0.7379155598192121 0.7379155598192121 0.7379155598192121
0.7427987885107723 0.7427987885107723 0.7427987885107723
0.7474649122785215 0.7474649122785215 0.7474649122785215
0.7519324168163979 0.7519324168163979 0.7519324168163979
0.7562175229323943 0.7562175229323943 0.7562175229323943
0.7603345420707343 0.7603345420707343 0.7603345420707343
0.7642961647018177 0.7642961647018177 0.7642961647018177
0.7681136962396317 0.7681136962396317 0.7681136962396317
0.7717972515423195 0.7717972515423195 0.7717972515423195
0.775355916425945 0.775355916425945 0.775355916425945
0.7787978826851569 0.7787978826851569 0.7787978826851569
0.7821305616703261 0.7821305616703261 0.7821305616703261
0.7853606803823624 0.7853606803823624 0.7853606803823624
0.7884943632181493 0.7884943632181493 0.7884943632181493
0.7915372018634796 0.7915372018634796 0.7915372018634796
0.7944943153377362 0.7944943153377362 0.7944943153377362
0.7973704018099794 0.7973704018099794 0.7973704018099794
0.8001697835036059 0.8001697835036059 0.8001697835036059
0.8028964457671427 0.8028964457671427 0.8028964457671427
0.8055540711976891 0.8055540711976891 0.8055540711976891
0.8081460695502284 0.8081460695502284 0.8081460695502284
0.8106756040423011 0.8106756040423011 0.8106756040423011
0.813145614563107 0.813145614563107 0.813145614563107
0.8155588382141508 0.8155588382141508 0.8155588382141508
0.8179178275413372 0.8179178275413372 0.8179178275413372
0.8202249667630304 0.8202249667630304 0.8202249667630304
0.8224824862527363 0.8224824862527363 0.8224824862527363
0.8246924754969399 0.8246924754969399 0.8246924754969399
0.8268568947167833 0.8268568947167833 0.8268568947167833
0.8289775853155882 0.8289775853155882 0.8289775853155882
0.8310562792917575 0.8310562792917575 0.8310562792917575
0.8330946077376231 0.8330946077376231 0.8330946077376231
0.8350941085287273 0.8350941085287273 0.8350941085287273
0.8370562332943479 0.8370562332943479 0.8370562332943479
0.8389823537484142 0.8389823537484142 0.8389823537484142
0.8408737674499744 0.8408737674499744 0.8408737674499744
0.8427317030538036 0.8427317030538036 0.8427317030538036
0.8445573251043645 0.8445573251043645 0.8445573251043645
0.846351738419969 0.846351738419969 0.846351738419969
0.8481159921084648 0.8481159921084648 0.8481159921084648
0.8498510832510034 0.8498510832510034 0.8498510832510034
0.8515579602862727 0.8515579602862727 0.8515579602862727
0.853237526123954 0.853237526123954 0.853237526123954
0.8548906410129957 0.8548906410129957 0.8548906410129957
0.8565181251875108 0.8565181251875108 0.8565181251875108
0.8581207613106742 0.8581207613106742 0.8581207613106742
0.8596992967348462 0.8596992967348462 0.8596992967348462
0.8612544455942618 0.8612544455942618 0.8612544455942618
0.8627868907449499 0.8627868907449499 0.8627868907449499
0.8642972855650773 0.8642972855650773 0.8642972855650773
0.8657862556275953 0.8657862556275953 0.8657862556275953
0.8672544002559038 0.8672544002559038 0.8672544002559038
0.8687022939722218 0.8687022939722218 0.8687022939722218
0.8701304878474153 0.8701304878474153 0.8701304878474153
0.8715395107602294 0.8715395107602294 0.8715395107602294
0.8729298705731149 0.8729298705731149 0.8729298705731149
0.8743020552312007 0.8743020552312007 0.8743020552312007
0.875656533790357 0.875656533790357 0.875656533790357
0.8769937573797706 0.8769937573797706 0.8769937573797706
0.8783141601039787 0.8783141601039787 0.8783141601039787
0.8796181598888678 0.8796181598888678 0.8796181598888678
0.8809061592757695 0.8809061592757695 0.8809061592757695
0.8821785461674245 0.8821785461674245 0.8821785461674245
0.8834356945292753 0.8834356945292753 0.8834356945292753
0.8846779650492584 0.8846779650492584 0.8846779650492584
0.8859057057590111 0.8859057057590111 0.8859057057590111
0.8871192526191661 0.8871192526191661 0.8871192526191661
0.8883189300712001 0.8883189300712001 0.8883189300712001
0.8895050515581012 0.8895050515581012 0.8895050515581012
0.8906779200159471 0.8906779200159471 0.8906779200159471
0.8918378283383243 0.8918378283383243 0.8918378283383243
0.8929850598153646 0.8929850598153646 0.8929850598153646
0.8941198885490511 0.8941198885490511 0.8941198885490511
0.8952425798463127 0.8952425798463127 0.8952425798463127
0.8963533905913195 0.8963533905913195 0.8963533905913195
0.8974525695982842 0.8974525695982842 0.8974525695982842
0.8985403579459844 0.8985403579459844 0.8985403579459844
0.8996169892951263 0.8996169892951263 0.8996169892951263
0.9006826901896005 0.9006826901896005 0.9006826901896005
0.9017376803425969 0.9017376803425969 0.9017376803425969
0.902782172908485 0.902782172908485 0.902782172908485
0.9038163747412996 0.9038163747412996 0.9038163747412996
0.9048404866406179 0.9048404866406179 0.9048404866406179
0.9058547035855571 0.9058547035855571 0.9058547035855571
0.9068592149575757 0.9068592149575757 0.9068592149575757
0.9078542047527158 0.9078542047527158 0.9078542047527158
0.9088398517838785 0.9088398517838785 0.9088398517838785
0.909816329873693 0.909816329873693 0.909816329873693
0.9107838080384959 0.9107838080384959 0.9107838080384959
0.9117424506639097 0.9117424506639097 0.9117424506639097
0.9126924176724766 0.9126924176724766 0.9126924176724766
0.9136338646837736 0.9136338646837736 0.9136338646837736
0.9145669431674133 0.9145669431674133 0.9145669431674133
0.9154918005893008 0.9154918005893008 0.9154918005893008
0.9164085805515085 0.9164085805515085 0.9164085805515085
0.91731742292609 0.91731742292609 0.91731742292609
0.9182184639831551 0.9182184639831551 0.9182184639831551
0.9191118365134922 0.9191118365134922 0.9191118365134922
0.9199976699460175 0.9199976699460175 0.9199976699460175
0.9208760904603094 0.9208760904603094 0.9208760904603094
0.9217472210944738 0.9217472210944738 0.9217472210944738
0.9226111818485696 0.9226111818485696 0.9226111818485696
0.9234680897838135 0.9234680897838135 0.9234680897838135
0.924318059117767 0.924318059117767 0.924318059117767
0.925161201315702 0.925161201315702 0.925161201315702
0.9259976251783254 0.9259976251783254 0.9259976251783254
0.9268274369260364 0.9268274369260364 0.9268274369260364
0.9276507402798787 0.9276507402798787 0.9276507402798787
0.9284676365393446 0.9284676365393446 0.9284676365393446
0.929278224657173 0.929278224657173 0.929278224657173
0.9300826013112821 0.9300826013112821 0.9300826013112821
0.930880860973968 0.930880860973968 0.930880860973968
0.9316730959784909 0.9316730959784909 0.9316730959784909
0.9324593965831669 0.9324593965831669 0.9324593965831669
0.9332398510330784 0.9332398510330784 0.9332398510330784
0.9340145456195063 0.9340145456195063 0.9340145456195063
0.9347835647371864 0.9347835647371864 0.9347835647371864
0.9355469909394818 0.9355469909394818 0.9355469909394818
0.936304904991565 0.936304904991565 0.936304904991565
0.9370573859216935 0.9370573859216935 0.9370573859216935
0.9378045110706599 0.9378045110706599 0.9378045110706599
0.9385463561394952 0.9385463561394952 0.9385463561394952
0.9392829952354987 0.9392829952354987 0.9392829952354987
0.9400145009166627 0.9400145009166627 0.9400145009166627
0.9407409442345611 0.9407409442345611 0.9407409442345611
0.9414623947757638 0.9414623947757638 0.9414623947757638
0.9421789207018376 0.9421789207018376 0.9421789207018376
0.9428905887879914 0.9428905887879914 0.9428905887879914
0.943597464460419 0.943597464460419 0.943597464460419
0.9442996118323949 0.9442996118323949 0.9442996118323949
0.9449970937391683 0.9449970937391683 0.9449970937391683
0.9456899717717094 0.9456899717717094 0.9456899717717094
0.9463783063093443 0.9463783063093443 0.9463783063093443
0.9470621565513307 0.9470621565513307 0.9470621565513307
0.9477415805474101 0.9477415805474101 0.9477415805474101
0.9484166352273778 0.9484166352273778 0.9484166352273778
0.9490873764297084 0.9490873764297084 0.9490873764297084
0.949753858929272 0.949753858929272 0.949753858929272
0.9504161364641766 0.9504161364641766 0.9504161364641766
0.9510742617617687 0.9510742617617687 0.9510742617617687
0.9517282865638246 0.9517282865638246 0.9517282865638246
0.9523782616509605 0.9523782616509605 0.9523782616509605
0.9530242368662923 0.9530242368662923 0.9530242368662923
0.9536662611383724 0.9536662611383724 0.9536662611383724
0.9543043825034274 0.9543043825034274 0.9543043825034274
0.9549386481269266 0.9549386481269266 0.9549386481269266
0.9555691043245005 0.9555691043245005 0.9555691043245005
0.9561957965822365 0.9561957965822365 0.9561957965822365
0.9568187695763705 0.9568187695763705 0.9568187695763705
0.9574380671923997 0.9574380671923997 0.9574380671923997
0.9580537325436338 0.9580537325436338 0.9580537325436338
0.9586658079892049 0.9586658079892049 0.9586658079892049
0.9592743351515566 0.9592743351515566 0.9592743351515566
0.9598793549334279 0.9598793549334279 0.9598793549334279
0.9604809075343514 0.9604809075343514 0.9604809075343514
0.9610790324666805 0.9610790324666805 0.9610790324666805
0.9616737685711632 0.9616737685711632 0.9616737685711632
0.9622651540320775 0.9622651540320775 0.9622651540320775
0.9628532263919422 0.9628532263919422 0.9628532263919422
0.9634380225658178 0.9634380225658178 0.9634380225658178
0.9640195788552116 0.9640195788552116 0.9640195788552116
0.9645979309616007 0.9645979309616007 0.9645979309616007
0.9651731139995819 0.9651731139995819 0.9651731139995819
0.9657451625096662 0.9657451625096662 0.9657451625096662
0.9663141104707247 0.9663141104707247 0.9663141104707247
0.9668799913120992 0.9668799913120992 0.9668799913120992
0.9674428379253897 0.9674428379253897 0.9674428379253897
0.9680026826759249 0.9680026826759249 0.9680026826759249
0.9685595574139312 0.9685595574139312 0.9685595574139312
0.9691134934854049 0.9691134934854049 0.9691134934854049
0.9696645217426997 0.9696645217426997 0.9696645217426997
0.9702126725548386 0.9702126725548386 0.9702126725548386
0.9707579758175567 0.9707579758175567 0.9707579758175567
0.9713004609630855 0.9713004609630855 0.9713004609630855
0.9718401569696845 0.9718401569696845 0.9718401569696845
0.9723770923709303 0.9723770923709303 0.9723770923709303
0.9729112952647687 0.9729112952647687 0.9729112952647687
0.9734427933223374 0.9734427933223374 0.9734427933223374
0.9739716137965676 0.9739716137965676 0.9739716137965676
0.9744977835305675 0.9744977835305675 0.9744977835305675
0.9750213289658004 0.9750213289658004 0.9750213289658004
0.9755422761500566 0.9755422761500566 0.9755422761500566
0.97606065074523 0.97606065074523 0.97606065074523
0.9765764780349036 0.9765764780349036 0.9765764780349036
0.9770897829317489 0.9770897829317489 0.9770897829317489
0.977600589984746 0.977600589984746 0.977600589984746
0.9781089233862285 0.9781089233862285 0.9781089233862285
0.9786148069787589 0.9786148069787589 0.9786148069787589
0.9791182642618379 0.9791182642618379 0.9791182642618379
0.9796193183984558 0.9796193183984558 0.9796193183984558
0.9801179922214867 0.9801179922214867 0.9801179922214867
0.9806143082399312 0.9806143082399312 0.9806143082399312
0.9811082886450139 0.9811082886450139 0.9811082886450139
0.9815999553161363 0.9815999553161363 0.9815999553161363
0.9820893298266922 0.9820893298266922 0.9820893298266922
0.9825764334497478 0.9825764334497478 0.9825764334497478
0.9830612871635898 0.9830612871635898 0.9830612871635898
0.9835439116571477 0.9835439116571477 0.9835439116571477
0.9840243273352902 0.9840243273352902 0.9840243273352902
0.9845025543240021 0.9845025543240021 0.9845025543240021
0.9849786124754436 0.9849786124754436 0.9849786124754436
0.9854525213728945 0.9854525213728945 0.9854525213728945
0.9859243003355894 0.9859243003355894 0.9859243003355894
0.986393968423442 0.986393968423442 0.986393968423442
0.9868615444416662 0.9868615444416662 0.9868615444416662
0.9873270469452944 0.9873270469452944 0.9873270469452944
0.9877904942435948 0.9877904942435948 0.9877904942435948
0.9882519044043937 0.9882519044043937 0.9882519044043937
0.9887112952583013 0.9887112952583013 0.9887112952583013
0.9891686844028466 0.9891686844028466 0.9891686844028466
0.9896240892065216 0.9896240892065216 0.9896240892065216
0.9900775268127399 0.9900775268127399 0.9900775268127399
0.9905290141437081 0.9905290141437081 0.9905290141437081
0.9909785679042152 0.9909785679042152 0.9909785679042152
0.9914262045853425 0.9914262045853425 0.9914262045853425
0.9918719404680916 0.9918719404680916 0.9918719404680916
0.9923157916269391 0.9923157916269391 0.9923157916269391
0.9927577739333141 0.9927577739333141 0.9927577739333141
0.993197903059004 0.993197903059004 0.993197903059004
0.9936361944794891 0.9936361944794891 0.9936361944794891
0.9940726634772067 0.9940726634772067 0.9940726634772067
0.9945073251447496 0.9945073251447496 0.9945073251447496
0.9949401943879964 0.9949401943879964 0.9949401943879964
0.9953712859291798 0.9953712859291798 0.9953712859291798
0.9958006143098908 0.9958006143098908 0.9958006143098908
0.9962281938940213 0.9962281938940213 0.9962281938940213
0.9966540388706482 0.9966540388706482 0.9966540388706482
0.9970781632568589 0.9970781632568589 0.9970781632568589
0.9975005809005197 0.9975005809005197 0.9975005809005197
0.997921305482988 0.997921305482988 0.997921305482988
0.9983403505217722 0.9983403505217722 0.9983403505217722
0.9987577293731368 0.9987577293731368 0.9987577293731368
0.9991734552346577 0.9991734552346577 0.9991734552346577
0.9995875411477254 0.9995875411477254 0.9995875411477254
1.0 1.0 1.0