luts/lut_arcsinh_stretch_10.cube
TITLE "Arcsinh_Stretch_10"
LUT_1D_SIZE 256
DOMAIN_MIN 0.0 0.0 0.0
DOMAIN_MAX 1.0 1.0 1.0
0.0 0.0 0.0
0.039014952839099476 0.039014952839099476 0.039014952839099476
0.07688813012959485 0.07688813012959485 0.07688813012959485
0.11274741238501805 0.11274741238501805 0.11274741238501805
0.14610676946767356 0.14610676946767356 0.14610676946767356
0.1768210814064227 0.1768210814064227 0.1768210814064227
0.20497028274624168 0.20497028274624168 0.20497028274624168
0.23075072297562027 0.23075072297562027 0.23075072297562027
0.2544016564014862 0.2544016564014862 0.2544016564014862
0.27616424281739704 0.27616424281739704 0.27616424281739704
0.29626216684818574 0.29626216684818574 0.29626216684818574
0.31489446503943647 0.31489446503943647 0.31489446503943647
0.33223451332170706 0.33223451332170706 0.33223451332170706
0.3484317814171476 0.3484317814171476 0.3484317814171476
0.3636146019736953 0.3636146019736953 0.3636146019736953
0.37789311196724784 0.37789311196724784 0.37789311196724784
0.3913619973938671 0.3913619973938671 0.3913619973938671
0.40410290713529046 0.40410290713529046 0.40410290713529046
0.41618651235033444 0.41618651235033444 0.41618651235033444
0.42767423551520384 0.42767423551520384 0.42767423551520384
0.4386196904315623 0.4386196904315623 0.4386196904315623
0.4490698774757095 0.4490698774757095 0.4490698774757095
0.45906617520469567 0.45906617520469567 0.45906617520469567
0.46864516410399176 0.46864516410399176 0.46864516410399176
0.47783931258275597 0.47783931258275597 0.47783931258275597
0.48667755007598434 0.48667755007598434 0.48667755007598434
0.4951857475707884 0.4951857475707884 0.4951857475707884
0.5033871220753103 0.5033871220753103 0.5033871220753103
0.5113025784326328 0.5113025784326328 0.5113025784326328
0.5189509993535906 0.5189509993535906 0.5189509993535906
0.5263494925027795 0.5263494925027795 0.5263494925027795
0.533513601831131 0.533513601831131 0.533513601831131
0.5404574890289304 0.5404574890289304 0.5404574890289304
0.5471940899112421 0.5471940899112421 0.5471940899112421
0.5537352496914911 0.5537352496914911 0.5537352496914911
0.5600918404069051 0.5600918404069051 0.5600918404069051
0.5662738631985037 0.5662738631985037 0.5662738631985037
0.5722905376920875 0.5722905376920875 0.5722905376920875
0.5781503803543785 0.5781503803543785 0.5781503803543785
0.5838612733935953 0.5838612733935953 0.5838612733935953
0.5894305255232074 0.5894305255232074 0.5894305255232074
0.5948649257009827 0.5948649257009827 0.5948649257009827
0.6001707907844218 0.6001707907844218 0.6001707907844218
0.6053540079016223 0.6053540079016223 0.6053540079016223
0.6104200722182276 0.6104200722182276 0.6104200722182276
0.6153741206820997 0.6153741206820997 0.6153741206820997
0.6202209622442776 0.6202209622442776 0.6202209622442776
0.6249651049848449 0.6249651049848449 0.6249651049848449
0.6296107805132712 0.6296107805132712 0.6296107805132712
0.6341619659627588 0.6341619659627588 0.6341619659627588
0.638622403855623 0.638622403855623 0.638622403855623
0.6429956200805089 0.6429956200805089 0.6429956200805089
0.6472849401912997 0.6472849401912997 0.6472849401912997
0.6514935042110469 0.6514935042110469 0.6514935042110469
0.6556242801014636 0.6556242801014636 0.6556242801014636
0.6596800760388956 0.6596800760388956 0.6596800760388956
0.6636635516207304 0.6636635516207304 0.6636635516207304
0.6675772281115288 0.6675772281115288 0.6675772281115288
0.6714234978254261 0.6714234978254261 0.6714234978254261
0.6752046327302827 0.6752046327302827 0.6752046327302827
0.6789227923493917 0.6789227923493917 0.6789227923493917
0.682580031028131 0.682580031028131 0.682580031028131
0.6861783046255533 0.6861783046255533 0.6861783046255533
0.6897194766844281 0.6897194766844281 0.6897194766844281
0.6932053241275609 0.6932053241275609 0.6932053241275609
0.6966375425231895 0.6966375425231895 0.6966375425231895
0.700017750957839 0.700017750957839 0.700017750957839
0.7033474965510988 0.7033474965510988 0.7033474965510988
0.7066282586433209 0.7066282586433209 0.7066282586433209
0.7098614526841652 0.7098614526841652 0.7098614526841652
0.7130484338471842 0.7130484338471842 0.7130484338471842
0.7161905003932061 0.7161905003932061 0.7161905003932061
0.7192888968031111 0.7192888968031111 0.7192888968031111
0.7223448166986549 0.7223448166986549 0.7223448166986549
0.7253594055682628 0.7253594055682628 0.7253594055682628
0.7283337633131721 0.7283337633131721 0.7283337633131721
0.731268946627898 0.731268946627898 0.731268946627898
0.7341659712277622 0.7341659712277622 0.7341659712277622
0.7370258139350896 0.7370258139350896 0.7370258139350896
0.7398494146346688 0.7398494146346688 0.7398494146346688
0.7426376781081628 0.7426376781081628 0.7426376781081628
0.7453914757563266 0.7453914757563266 0.7453914757563266
0.7481116472171456 0.7481116472171456 0.7481116472171456
0.7507990018873363 0.7507990018873363 0.7507990018873363
0.7534543203540328 0.7534543203540328 0.7534543203540328
0.7560783557429362 0.7560783557429362 0.7560783557429362
0.7586718349886924 0.7586718349886924 0.7586718349886924
0.761235460032809 0.761235460032809 0.761235460032809
0.7637699089540063 0.7637699089540063 0.7637699089540063
0.7662758370355122 0.7662758370355122 0.7662758370355122
0.7687538777734688 0.7687538777734688 0.7687538777734688
0.7712046438302982 0.7712046438302982 0.7712046438302982
0.773628727936586 0.773628727936586 0.773628727936586
0.7760267037447787 0.7760267037447787 0.7760267037447787
0.7783991266377435 0.7783991266377435 0.7783991266377435
0.7807465344950207 0.7807465344950207 0.7807465344950207
0.7830694484193916 0.7830694484193916 0.7830694484193916
0.7853683734261998 0.7853683734261998 0.7853683734261998
0.7876437990976893 0.7876437990976893 0.7876437990976893
0.7898962002044652 0.7898962002044652 0.7898962002044652
0.7921260372960348 0.7921260372960348 0.7921260372960348
0.7943337572622575 0.7943337572622575 0.7943337572622575
0.7965197938673996 0.7965197938673996 0.7965197938673996
0.7986845682583824 0.7986845682583824 0.7986845682583824
0.8008284894487028 0.8008284894487028 0.8008284894487028
0.8029519547794087 0.8029519547794087 0.8029519547794087
0.8050553503584205 0.8050553503584205 0.8050553503584205
0.8071390514794048 0.8071390514794048 0.8071390514794048
0.8092034230213336 0.8092034230213336 0.8092034230213336
0.8112488198297818 0.8112488198297818 0.8112488198297818
0.8132755870809589 0.8132755870809589 0.8132755870809589
0.8152840606293996 0.8152840606293996 0.8152840606293996
0.817274567340187 0.817274567340187 0.817274567340187
0.8192474254065242 0.8192474254065242 0.8192474254065242
0.8212029446534233 0.8212029446534233 0.8212029446534233
0.8231414268282317 0.8231414268282317 0.8231414268282317
0.8250631658786742 0.8250631658786742 0.8250631658786742
0.8269684482190484 0.8269684482190484 0.8269684482190484
0.8288575529851722 0.8288575529851722 0.8288575529851722
0.8307307522786508 0.8307307522786508 0.8307307522786508
0.8325883114009917 0.8325883114009917 0.8325883114009917
0.8344304890780726 0.8344304890780726 0.8344304890780726
0.8362575376754318 0.8362575376754318 0.8362575376754318
0.8380697034048299 0.8380697034048299 0.8380697034048299
0.8398672265225015 0.8398672265225015 0.8398672265225015
0.8416503415194956 0.8416503415194956 0.8416503415194956
0.8434192773044799 0.8434192773044799 0.8434192773044799
0.845174257379364 0.845174257379364 0.845174257379364
0.8469155000080766 0.8469155000080766 0.8469155000080766
0.8486432183788147 0.8486432183788147 0.8486432183788147
0.8503576207600644 0.8503576207600644 0.8503576207600644
0.852058910650679 0.852058910650679 0.852058910650679
0.8537472869242821 0.8537472869242821 0.8537472869242821
0.8554229439682534 0.8554229439682534 0.8554229439682534
0.8570860718175347 0.8570860718175347 0.8570860718175347
0.8587368562834928 0.8587368562834928 0.8587368562834928
0.8603754790780485 0.8603754790780485 0.8603754790780485
0.862002117933285 0.862002117933285 0.862002117933285
0.8636169467167288 0.8636169467167288 0.8636169467167288
0.8652201355424907 0.8652201355424907 0.8652201355424907
0.8668118508784409 0.8668118508784409 0.8668118508784409
0.8683922556495924 0.8683922556495924 0.8683922556495924
0.8699615093378459 0.8699615093378459 0.8699615093378459
0.871519768078254 0.871519768078254 0.871519768078254
0.873067184751946 0.873067184751946 0.873067184751946
0.8746039090758524 0.8746039090758524 0.8746039090758524
0.8761300876893606 0.8761300876893606 0.8761300876893606
0.8776458642380265 0.8776458642380265 0.8776458642380265
0.8791513794544612 0.8791513794544612 0.8791513794544612
0.8806467712365058 0.8806467712365058 0.8806467712365058
0.8821321747228036 0.8821321747228036 0.8821321747228036
0.8836077223658722 0.8836077223658722 0.8836077223658722
0.8850735440027745 0.8850735440027745 0.8850735440027745
0.8865297669234817 0.8865297669234817 0.8865297669234817
0.8879765159370198 0.8879765159370198 0.8879765159370198
0.8894139134354824 0.8894139134354824 0.8894139134354824
0.890842079455996 0.890842079455996 0.890842079455996
0.8922611317407102 0.8922611317407102 0.8922611317407102
0.8936711857948952 0.8936711857948952 0.8936711857948952
0.8950723549432089 0.8950723549432089 0.8950723549432089
0.8964647503842111 0.8964647503842111 0.8964647503842111
0.8978484812431828 0.8978484812431828 0.8978484812431828
0.8992236546233183 0.8992236546233183 0.8992236546233183
0.9005903756553473 0.9005903756553473 0.9005903756553473
0.9019487475456437 0.9019487475456437 0.9019487475456437
0.9032988716228809 0.9032988716228809 0.9032988716228809
0.9046408473832784 0.9046408473832784 0.9046408473832784
0.9059747725344968 0.9059747725344968 0.9059747725344968
0.9073007430382278 0.9073007430382278 0.9073007430382278
0.9086188531515218 0.9086188531515218 0.9086188531515218
0.9099291954669037 0.9099291954669037 0.9099291954669037
0.9112318609513139 0.9112318609513139 0.9112318609513139
0.9125269389839191 0.9125269389839191 0.9125269389839191
0.9138145173928302 0.9138145173928302 0.9138145173928302
0.9150946824907655 0.9150946824907655 0.9150946824907655
0.9163675191096954 0.9163675191096954 0.9163675191096954
0.9176331106345027 0.9176331106345027 0.9176331106345027
0.918891539035694 0.918891539035694 0.918891539035694
0.9201428849011893 0.9201428849011893 0.9201428849011893
0.9213872274672277 0.9213872274672277 0.9213872274672277
0.922624644648412 0.922624644648412 0.922624644648412
0.9238552130669242 0.9238552130669242 0.9238552130669242
0.9250790080809397 0.9250790080809397 0.9250790080809397
0.9262961038122632 0.9262961038122632 0.9262961038122632
0.9275065731732163 0.9275065731732163 0.9275065731732163
0.9287104878927961 0.9287104878927961 0.9287104878927961
0.9299079185421318 0.9299079185421318 0.9299079185421318
0.9310989345592618 0.9310989345592618 0.9310989345592618
0.9322836042732496 0.9322836042732496 0.9322836042732496
0.9334619949276631 0.9334619949276631 0.9334619949276631
0.934634172703437 0.934634172703437 0.934634172703437
0.9358002027411342 0.9358002027411342 0.9358002027411342
0.9369601491626298 0.9369601491626298 0.9369601491626298
0.9381140750922332 0.9381140750922332 0.9381140750922332
0.9392620426772634 0.9392620426772634 0.9392620426772634
0.9404041131081002 0.9404041131081002 0.9404041131081002
0.9415403466377215 0.9415403466377215 0.9415403466377215
0.9426708026007448 0.9426708026007448 0.9426708026007448
0.9437955394319898 0.9437955394319898 0.9437955394319898
0.9449146146845717 0.9449146146845717 0.9449146146845717
0.9460280850475455 0.9460280850475455 0.9460280850475455
0.9471360063631074 0.9471360063631074 0.9471360063631074
0.9482384336433737 0.9482384336433737 0.9482384336433737
0.9493354210867458 0.9493354210867458 0.9493354210867458
0.9504270220938719 0.9504270220938719 0.9504270220938719
0.9515132892832218 0.9515132892832218 0.9515132892832218
0.952594274506283 0.952594274506283 0.952594274506283
0.953670028862388 0.953670028862388 0.953670028862388
0.954740602713189 0.954740602713189 0.954740602713189
0.955806045696781 0.955806045696781 0.955806045696781
0.9568664067414929 0.9568664067414929 0.9568664067414929
0.9579217340793506 0.9579217340793506 0.9579217340793506
0.9589720752592206 0.9589720752592206 0.9589720752592206
0.960017477159648 0.960017477159648 0.960017477159648
0.9610579860013921 0.9610579860013921 0.9610579860013921
0.9620936473596715 0.9620936473596715 0.9620936473596715
0.963124506176126 0.963124506176126 0.963124506176126
0.9641506067705014 0.9641506067705014 0.9641506067705014
0.9651719928520679 0.9651719928520679 0.9651719928520679
0.9661887075307768 0.9661887075307768 0.9661887075307768
0.9672007933281637 0.9672007933281637 0.9672007933281637
0.9682082921880047 0.9682082921880047 0.9682082921880047
0.9692112454867335 0.9692112454867335 0.9692112454867335
0.9702096940436236 0.9702096940436236 0.9702096940436236
0.9712036781307442 0.9712036781307442 0.9712036781307442
0.9721932374826945 0.9721932374826945 0.9721932374826945
0.9731784113061211 0.9731784113061211 0.9731784113061211
0.9741592382890293 0.9741592382890293 0.9741592382890293
0.9751357566098857 0.9751357566098857 0.9751357566098857
0.9761080039465254 0.9761080039465254 0.9761080039465254
0.9770760174848638 0.9770760174848638 0.9770760174848638
0.9780398339274207 0.9780398339274207 0.9780398339274207
0.9789994895016588 0.9789994895016588 0.9789994895016588
0.9799550199681472 0.9799550199681472 0.9799550199681472
0.9809064606285447 0.9809064606285447 0.9809064606285447
0.9818538463334178 0.9818538463334178 0.9818538463334178
0.9827972114898921 0.9827972114898921 0.9827972114898921
0.9837365900691397 0.9837365900691397 0.9837365900691397
0.9846720156137128 0.9846720156137128 0.9846720156137128
0.9856035212447213 0.9856035212447213 0.9856035212447213
0.9865311396688614 0.9865311396688614 0.9865311396688614
0.9874549031852994 0.9874549031852994 0.9874549031852994
0.9883748436924115 0.9883748436924115 0.9883748436924115
0.9892909926943864 0.9892909926943864 0.9892909926943864
0.990203381307691 0.990203381307691 0.990203381307691
0.991112040267406 0.991112040267406 0.991112040267406
0.9920169999334307 0.9920169999334307 0.9920169999334307
0.9929182902965641 0.9929182902965641 0.9929182902965641
0.9938159409844609 0.9938159409844609 0.9938159409844609
0.9947099812674707 0.9947099812674707 0.9947099812674707
0.9956004400643581 0.9956004400643581 0.9956004400643581
0.9964873459479098 0.9964873459479098 0.9964873459479098
0.9973707271504301 0.9973707271504301 0.9973707271504301
0.9982506115691282 0.9982506115691282 0.9982506115691282
0.999127026771399 0.999127026771399 0.999127026771399
1.0 1.0 1.0