luts/lut_arcsinh_stretch_15.cube
TITLE "Arcsinh_Stretch_15"
LUT_1D_SIZE 256
DOMAIN_MIN 0.0 0.0 0.0
DOMAIN_MAX 1.0 1.0 1.0
0.0 0.0 0.0
0.05800264271509038 0.05800264271509038 0.05800264271509038
0.11171450913580132 0.11171450913580132 0.11171450913580132
0.15906687905271194 0.15906687905271194 0.15906687905271194
0.20003698605674977 0.20003698605674977 0.20003698605674977
0.23547991393374054 0.23547991393374054 0.23547991393374054
0.2663871430990652 0.2663871430990652 0.2663871430990652
0.2936233329202349 0.2936233329202349 0.2936233329202349
0.31787942265567615 0.31787942265567615 0.31787942265567615
0.33969301070401037 0.33969301070401037 0.33969301070401037
0.3594811007094182 0.3594811007094182 0.3594811007094182
0.3775693200872811 0.3775693200872811 0.3775693200872811
0.39421464823449787 0.39421464823449787 0.39421464823449787
0.4096223084319445 0.4096223084319445 0.4096223084319445
0.42395815789992775 0.42395815789992775 0.42395815789992775
0.43735778155824223 0.43735778155824223 0.43735778155824223
0.44993321290560645 0.44993321290560645 0.44993321290560645
0.461777950071517 0.461777950071517 0.461777950071517
0.4729707406978331 0.4729707406978331 0.4729707406978331
0.48357847007211713 0.48357847007211713 0.48357847007211713
0.49365838945420504 0.49365838945420504 0.49365838945420504
0.5032598537082413 0.5032598537082413 0.5032598537082413
0.5124256900610283 0.5124256900610283 0.5124256900610283
0.5211932866305915 0.5211932866305915 0.5211932866305915
0.5295954658982385 0.5295954658982385 0.5295954658982385
0.5376611915359877 0.5376611915359877 0.5376611915359877
0.545416144912437 0.545416144912437 0.545416144912437
0.5528831987942291 0.5528831987942291 0.5528831987942291
0.5600828092825874 0.5600828092825874 0.5600828092825874
0.5670333422137493 0.5670333422137493 0.5670333422137493
0.5737513466465414 0.5737513466465414 0.5737513466465414
0.5802517853340241 0.5802517853340241 0.5802517853340241
0.5865482299972257 0.5865482299972257 0.5865482299972257
0.5926530276209611 0.5926530276209611 0.5926530276209611
0.5985774427539009 0.5985774427539009 0.5985774427539009
0.6043317798292422 0.6043317798292422 0.6043317798292422
0.6099254887634797 0.6099254887634797 0.6099254887634797
0.6153672564906169 0.6153672564906169 0.6153672564906169
0.6206650866114882 0.6206650866114882 0.6206650866114882
0.6258263689554102 0.6258263689554102 0.6258263689554102
0.6308579405434138 0.6308579405434138 0.6308579405434138
0.6357661391929603 0.6357661391929603 0.6357661391929603
0.6405568508011118 0.6405568508011118 0.6405568508011118
0.645235551177146 0.645235551177146 0.645235551177146
0.6498073431592024 0.6498073431592024 0.6498073431592024
0.6542769896369448 0.6542769896369448 0.6542769896369448
0.6586489430088638 0.6586489430088638 0.6586489430088638
0.6629273715251125 0.6629273715251125 0.6629273715251125
0.6671161829017999 0.6671161829017999 0.6671161829017999
0.671219045538144 0.671219045538144 0.671219045538144
0.6752394076219792 0.6752394076219792 0.6752394076219792
0.6791805143703066 0.6791805143703066 0.6791805143703066
0.6830454236186755 0.6830454236186755 0.6830454236186755
0.6868370199451889 0.6868370199451889 0.6868370199451889
0.6905580274910342 0.6905580274910342 0.6905580274910342
0.6942110216189963 0.6942110216189963 0.6942110216189963
0.6977984395338457 0.6977984395338457 0.6977984395338457
0.7013225899733894 0.7013225899733894 0.7013225899733894
0.7047856620659162 0.7047856620659162 0.7047856620659162
0.7081897334384845 0.7081897334384845 0.7081897334384845
0.7115367776506966 0.7115367776506966 0.7115367776506966
0.7148286710200868 0.7148286710200868 0.7148286710200868
0.7180671988978164 0.7180671988978164 0.7180671988978164
0.7212540614468813 0.7212540614468813 0.7212540614468813
0.7243908789693482 0.7243908789693482 0.7243908789693482
0.7274791968241493 0.7274791968241493 0.7274791968241493
0.7305204899725757 0.7305204899725757 0.7305204899725757
0.7335161671847409 0.7335161671847409 0.7335161671847409
0.7364675749368772 0.7364675749368772 0.7364675749368772
0.7393760010263033 0.7393760010263033 0.7393760010263033
0.7422426779282244 0.7422426779282244 0.7422426779282244
0.7450687859161562 0.7450687859161562 0.7450687859161562
0.7478554559656436 0.7478554559656436 0.7478554559656436
0.750603772459068 0.750603772459068 0.750603772459068
0.753314775707656 0.753314775707656 0.753314775707656
0.755989464305301 0.755989464305301 0.755989464305301
0.7586287973274654 0.7586287973274654 0.7586287973274654
0.7612336963872304 0.7612336963872304 0.7612336963872304
0.7638050475594732 0.7638050475594732 0.7638050475594732
0.766343703183186 0.766343703183186 0.766343703183186
0.768850483551072 0.768850483551072 0.768850483551072
0.771326178494767 0.771326178494767 0.771326178494767
0.7737715488733228 0.7737715488733228 0.7737715488733228
0.7761873279719441 0.7761873279719441 0.7761873279719441
0.7785742228173924 0.7785742228173924 0.7785742228173924
0.7809329154159358 0.7809329154159358 0.7809329154159358
0.7832640639192523 0.7832640639192523 0.7832640639192523
0.7855683037232565 0.7855683037232565 0.7855683037232565
0.7878462485044224 0.7878462485044224 0.7878462485044224
0.7900984911978198 0.7900984911978198 0.7900984911978198
0.7923256049207497 0.7923256049207497 0.7923256049207497
0.7945281438455699 0.7945281438455699 0.7945281438455699
0.7967066440250226 0.7967066440250226 0.7967066440250226
0.7988616241731337 0.7988616241731337 0.7988616241731337
0.8009935864045195 0.8009935864045195 0.8009935864045195
0.8031030169347292 0.8031030169347292 0.8031030169347292
0.8051903867440616 0.8051903867440616 0.8051903867440616
0.8072561522071159 0.8072561522071159 0.8072561522071159
0.8093007556901761 0.8093007556901761 0.8093007556901761
0.8113246261183811 0.8113246261183811 0.8113246261183811
0.8133281795144944 0.8133281795144944 0.8133281795144944
0.8153118195109612 0.8153118195109612 0.8153118195109612
0.8172759378368267 0.8172759378368267 0.8172759378368267
0.8192209147809818 0.8192209147809818 0.8192209147809818
0.8211471196331018 0.8211471196331018 0.8211471196331018
0.8230549111035563 0.8230549111035563 0.8230549111035563
0.8249446377234776 0.8249446377234776 0.8249446377234776
0.8268166382261083 0.8268166382261083 0.8268166382261083
0.8286712419104614 0.8286712419104614 0.8286712419104614
0.8305087689882741 0.8305087689882741 0.8305087689882741
0.8323295309151638 0.8323295309151638 0.8323295309151638
0.834133830706843 0.834133830706843 0.834133830706843
0.8359219632411927 0.8359219632411927 0.8359219632411927
0.8376942155469493 0.8376942155469493 0.8376942155469493
0.8394508670797057 0.8394508670797057 0.8394508670797057
0.8411921899858945 0.8411921899858945 0.8411921899858945
0.8429184493553715 0.8429184493553715 0.8429184493553715
0.8446299034631869 0.8446299034631869 0.8446299034631869
0.8463268040010945 0.8463268040010945 0.8463268040010945
0.8480093962993166 0.8480093962993166 0.8480093962993166
0.8496779195390529 0.8496779195390529 0.8496779195390529
0.851332606956192 0.851332606956192 0.851332606956192
0.8529736860366595 0.8529736860366595 0.8529736860366595
0.8546013787038127 0.8546013787038127 0.8546013787038127
0.856215901498264 0.856215901498264 0.856215901498264
0.8578174657504983 0.8578174657504983 0.8578174657504983
0.859406277746631 0.859406277746631 0.859406277746631
0.8609825388876254 0.8609825388876254 0.8609825388876254
0.8625464458422818 0.8625464458422818 0.8625464458422818
0.8640981906942852 0.8640981906942852 0.8640981906942852
0.865637961083587 0.865637961083587 0.865637961083587
0.8671659403423825 0.8671659403423825 0.8671659403423825
0.8686823076259258 0.8686823076259258 0.8686823076259258
0.8701872380384206 0.8701872380384206 0.8701872380384206
0.8716809027542037 0.8716809027542037 0.8716809027542037
0.8731634691344325 0.8731634691344325 0.8731634691344325
0.8746351008394752 0.8746351008394752 0.8746351008394752
0.8760959579371906 0.8760959579371906 0.8760959579371906
0.8775461970072803 0.8775461970072803 0.8775461970072803
0.8789859712418768 0.8789859712418768 0.8789859712418768
0.8804154305425358 0.8804154305425358 0.8804154305425358
0.881834721613781 0.881834721613781 0.881834721613781
0.8832439880533507 0.8832439880533507 0.8832439880533507
0.8846433704392814 0.8846433704392814 0.8846433704392814
0.8860330064139641 0.8860330064139641 0.8860330064139641
0.8874130307652958 0.8874130307652958 0.8874130307652958
0.8887835755050463 0.8887835755050463 0.8887835755050463
0.8901447699445569 0.8901447699445569 0.8901447699445569
0.8914967407678746 0.8914967407678746 0.8914967407678746
0.8928396121024286 0.8928396121024286 0.8928396121024286
0.894173505587348 0.894173505587348 0.894173505587348
0.8954985404395114 0.8954985404395114 0.8954985404395114
0.8968148335174211 0.8968148335174211 0.8968148335174211
0.8981224993829849 0.8981224993829849 0.8981224993829849
0.899421650361291 0.899421650361291 0.899421650361291
0.9007123965984476 0.9007123965984476 0.9007123965984476
0.9019948461175689 0.9019948461175689 0.9019948461175689
0.9032691048729721 0.9032691048729721 0.9032691048729721
0.9045352768026588 0.9045352768026588 0.9045352768026588
0.9057934638791405 0.9057934638791405 0.9057934638791405
0.9070437661586754 0.9070437661586754 0.9070437661586754
0.9082862818289714 0.9082862818289714 0.9082862818289714
0.9095211072554155 0.9095211072554155 0.9095211072554155
0.9107483370258825 0.9107483370258825 0.9107483370258825
0.9119680639941744 0.9119680639941744 0.9119680639941744
0.9131803793221418 0.9131803793221418 0.9131803793221418
0.9143853725205342 0.9143853725205342 0.9143853725205342
0.9155831314886248 0.9155831314886248 0.9155831314886248
0.9167737425526549 0.9167737425526549 0.9167737425526549
0.9179572905031372 0.9179572905031372 0.9179572905031372
0.9191338586310618 0.9191338586310618 0.9191338586310618
0.9203035287630404 0.9203035287630404 0.9203035287630404
0.9214663812954283 0.9214663812954283 0.9214663812954283
0.922622495227457 0.922622495227457 0.922622495227457
0.9237719481934142 0.9237719481934142 0.9237719481934142
0.924914816493903 0.924914816493903 0.924914816493903
0.9260511751262099 0.9260511751262099 0.9260511751262099
0.9271810978138155 0.9271810978138155 0.9271810978138155
0.9283046570350736 0.9283046570350736 0.9283046570350736
0.9294219240510878 0.9294219240510878 0.9294219240510878
0.9305329689328131 0.9305329689328131 0.9305329689328131
0.931637860587407 0.931637860587407 0.931637860587407
0.9327366667838559 0.9327366667838559 0.9327366667838559
0.9338294541778994 0.9338294541778994 0.9338294541778994
0.9349162883362769 0.9349162883362769 0.9349162883362769
0.9359972337603177 0.9359972337603177 0.9359972337603177
0.9370723539088953 0.9370723539088953 0.9370723539088953
0.9381417112207673 0.9381417112207673 0.9381417112207673
0.9392053671363209 0.9392053671363209 0.9392053671363209
0.9402633821187396 0.9402633821187396 0.9402633821187396
0.9413158156746162 0.9413158156746162 0.9413158156746162
0.9423627263740211 0.9423627263740211 0.9423627263740211
0.9434041718700489 0.9434041718700489 0.9434041718700489
0.9444402089178588 0.9444402089178588 0.9444402089178588
0.9454708933932214 0.9454708933932214 0.9454708933932214
0.946496280310591 0.946496280310591 0.946496280310591
0.9475164238407137 0.9475164238407137 0.9475164238407137
0.9485313773277916 0.9485313773277916 0.9485313773277916
0.9495411933062083 0.9495411933062083 0.9495411933062083
0.9505459235168378 0.9505459235168378 0.9505459235168378
0.9515456189229419 0.9515456189229419 0.9515456189229419
0.9525403297256727 0.9525403297256727 0.9525403297256727
0.9535301053791914 0.9535301053791914 0.9535301053791914
0.9545149946054123 0.9545149946054123 0.9545149946054123
0.9554950454083868 0.9554950454083868 0.9554950454083868
0.9564703050883347 0.9564703050883347 0.9564703050883347
0.9574408202553351 0.9574408202553351 0.9574408202553351
0.9584066368426848 0.9584066368426848 0.9584066368426848
0.9593678001199378 0.9593678001199378 0.9593678001199378
0.960324354705629 0.960324354705629 0.960324354705629
0.9612763445796969 0.9612763445796969 0.9612763445796969
0.9622238130956102 0.9622238130956102 0.9622238130956102
0.9631668029922089 0.9631668029922089 0.9631668029922089
0.9641053564052655 0.9641053564052655 0.9641053564052655
0.9650395148787776 0.9650395148787776 0.9650395148787776
0.965969319375996 0.965969319375996 0.965969319375996
0.9668948102901974 0.9668948102901974 0.9668948102901974
0.9678160274552093 0.9678160274552093 0.9678160274552093
0.9687330101556918 0.9687330101556918 0.9687330101556918
0.9696457971371855 0.9696457971371855 0.9696457971371855
0.9705544266159298 0.9705544266159298 0.9705544266159298
0.9714589362884594 0.9714589362884594 0.9714589362884594
0.9723593633409838 0.9723593633409838 0.9723593633409838
0.9732557444585567 0.9732557444585567 0.9732557444585567
0.9741481158340395 0.9741481158340395 0.9741481158340395
0.9750365131768663 0.9750365131768663 0.9750365131768663
0.9759209717216145 0.9759209717216145 0.9759209717216145
0.9768015262363859 0.9768015262363859 0.9768015262363859
0.9776782110310037 0.9776782110310037 0.9776782110310037
0.9785510599650308 0.9785510599650308 0.9785510599650308
0.9794201064556127 0.9794201064556127 0.9794201064556127
0.9802853834851524 0.9802853834851524 0.9802853834851524
0.9811469236088158 0.9811469236088158 0.9811469236088158
0.9820047589618803 0.9820047589618803 0.9820047589618803
0.9828589212669225 0.9828589212669225 0.9828589212669225
0.9837094418408553 0.9837094418408553 0.9837094418408553
0.9845563516018134 0.9845563516018134 0.9845563516018134
0.9853996810758959 0.9853996810758959 0.9853996810758959
0.9862394604037645 0.9862394604037645 0.9862394604037645
0.9870757193471055 0.9870757193471055 0.9870757193471055
0.987908487294955 0.987908487294955 0.987908487294955
0.9887377932698951 0.9887377932698951 0.9887377932698951
0.9895636659341196 0.9895636659341196 0.9895636659341196
0.990386133595376 0.990386133595376 0.990386133595376
0.9912052242127852 0.9912052242127852 0.9912052242127852
0.992020965402542 0.992020965402542 0.992020965402542
0.9928333844435004 0.9928333844435004 0.9928333844435004
0.993642508282645 0.993642508282645 0.993642508282645
0.9944483635404511 0.9944483635404511 0.9944483635404511
0.9952509765161396 0.9952509765161396 0.9952509765161396
0.9960503731928232 0.9960503731928232 0.9960503731928232
0.9968465792425537 0.9968465792425537 0.9968465792425537
0.9976396200312649 0.9976396200312649 0.9976396200312649
0.9984295206236221 0.9984295206236221 0.9984295206236221
0.9992163057877713 0.9992163057877713 0.9992163057877713
1.0 1.0 1.0