luts/lut_arcsinh_stretch_25.cube
TITLE "Arcsinh_Stretch_25"
LUT_1D_SIZE 256
DOMAIN_MIN 0.0 0.0 0.0
DOMAIN_MAX 1.0 1.0 1.0
0.0 0.0 0.0
0.09362370221631335 0.09362370221631335 0.09362370221631335
0.16918618838569244 0.16918618838569244 0.16918618838569244
0.22687558409427652 0.22687558409427652 0.22687558409427652
0.27203194701631095 0.27203194701631095 0.27203194701631095
0.30868087177980413 0.30868087177980413 0.30868087177980413
0.3393587781857272 0.3393587781857272 0.3393587781857272
0.3656711672337193 0.3656711672337193 0.3656711672337193
0.38867370986550076 0.38867370986550076 0.38867370986550076
0.4090894281296758 0.4090894281296758 0.4090894281296758
0.42743202073954706 0.42743202073954706 0.42743202073954706
0.44407818564073137 0.44407818564073137 0.44407818564073137
0.45931170848570224 0.45931170848570224 0.45931170848570224
0.473351364058641 0.473351364058641 0.473351364058641
0.4863691840804457 0.4863691840804457 0.4863691840804457
0.4985027848472226 0.4985027848472226 0.4985027848472226
0.509863911861814 0.509863911861814 0.509863911861814
0.5205445042673896 0.5205445042673896 0.5205445042673896
0.530621090409403 0.530621090409403 0.530621090409403
0.5401580340151214 0.5401580340151214 0.5401580340151214
0.5492099720716399 0.5492099720716399 0.5492099720716399
0.5578236734823546 0.5578236734823546 0.5578236734823546
0.5660394755500481 0.5660394755500481 0.5660394755500481
0.573892407977757 0.573892407977757 0.573892407977757
0.5814130823128612 0.5814130823128612 0.5814130823128612
0.5886284030578083 0.5886284030578083 0.5886284030578083
0.5955621415929561 0.5955621415929561 0.5955621415929561
0.6022354034182134 0.6022354034182134 0.6022354034182134
0.6086670116059572 0.6086670116059572 0.6086670116059572
0.614873823836059 0.614873823836059 0.614873823836059
0.6208709963306142 0.6208709963306142 0.6208709963306142
0.6266722049967746 0.6266722049967746 0.6266722049967746
0.6322898318283735 0.6322898318283735 0.6322898318283735
0.6377351229063888 0.6377351229063888 0.6377351229063888
0.6430183230302218 0.6430183230302218 0.6430183230302218
0.6481487910028696 0.6481487910028696 0.6481487910028696
0.6531350988086142 0.6531350988086142 0.6531350988086142
0.6579851173072577 0.6579851173072577 0.6579851173072577
0.6627060905839596 0.6627060905839596 0.6627060905839596
0.6673047007084492 0.6673047007084492 0.6673047007084492
0.6717871243493433 0.6717871243493433 0.6717871243493433
0.6761590824415193 0.6761590824415193 0.6761590824415193
0.6804258839040357 0.6804258839040357 0.6804258839040357
0.6845924642430502 0.6845924642430502 0.6845924642430502
0.6886634197408718 0.6886634197408718 0.6886634197408718
0.6926430378227498 0.6926430378227498 0.6926430378227498
0.6965353241025873 0.6965353241025873 0.6965353241025873
0.7003440265337881 0.7003440265337881 0.7003440265337881
0.7040726570290161 0.7040726570290161 0.7040726570290161
0.707724510860441 0.707724510860441 0.707724510860441
0.7113026841082261 0.7113026841082261 0.7113026841082261
0.7148100893880964 0.7148100893880964 0.7148100893880964
0.7182494700576041 0.7182494700576041 0.7182494700576041
0.7216234130742273 0.7216234130742273 0.7216234130742273
0.7249343606558856 0.7249343606558856 0.7249343606558856
0.7281846208752061 0.7281846208752061 0.7281846208752061
0.7313763773023775 0.7313763773023775 0.7313763773023775
0.7345116977972627 0.7345116977972627 0.7345116977972627
0.7375925425392355 0.7375925425392355 0.7375925425392355
0.7406207713726596 0.7406207713726596 0.7406207713726596
0.7435981505367973 0.7435981505367973 0.7435981505367973
0.7465263588410066 0.7465263588410066 0.7465263588410066
0.7494069933391782 0.7494069933391782 0.7494069933391782
0.7522415745513473 0.7522415745513473 0.7522415745513473
0.7550315512751441 0.7550315512751441 0.7550315512751441
0.7577783050251325 0.7577783050251325 0.7577783050251325
0.7604831541340343 0.7604831541340343 0.7604831541340343
0.7631473575462655 0.7631473575462655 0.7631473575462655
0.7657721183310666 0.7657721183310666 0.7657721183310666
0.7683585869397297 0.7683585869397297 0.7683585869397297
0.77090786422896 0.77090786422896 0.77090786422896
0.7734210042702327 0.7734210042702327 0.7734210042702327
0.7758990169630627 0.7758990169630627 0.7758990169630627
0.7783428704683774 0.7783428704683774 0.7783428704683774
0.7807534934766523 0.7807534934766523 0.7807534934766523
0.7831317773240859 0.7831317773240859 0.7831317773240859
0.7854785779688667 0.7854785779688667 0.7854785779688667
0.7877947178384861 0.7877947178384861 0.7877947178384861
0.7900809875580609 0.7900809875580609 0.7900809875580609
0.792338147568743 0.792338147568743 0.792338147568743
0.7945669296444966 0.7945669296444966 0.7945669296444966
0.7967680383148071 0.7967680383148071 0.7967680383148071
0.7989421522002315 0.7989421522002315 0.7989421522002315
0.8010899252671225 0.8010899252671225 0.8010899252671225
0.8032119880073213 0.8032119880073213 0.8032119880073213
0.805308948548141 0.805308948548141 0.805308948548141
0.8073813936975232 0.8073813936975232 0.8073813936975232
0.809429889928859 0.809429889928859 0.809429889928859
0.8114549843096043 0.8114549843096043 0.8114549843096043
0.8134572053774959 0.8134572053774959 0.8134572053774959
0.8154370639678744 0.8154370639678744 0.8154370639678744
0.817395053995354 0.817395053995354 0.817395053995354
0.8193316531928241 0.8193316531928241 0.8193316531928241
0.8212473238105529 0.8212473238105529 0.8212473238105529
0.8231425132779439 0.8231425132779439 0.8231425132779439
0.8250176548303177 0.8250176548303177 0.8250176548303177
0.8268731681029129 0.8268731681029129 0.8268731681029129
0.828709459694139 0.828709459694139 0.828709459694139
0.8305269236999768 0.8305269236999768 0.8305269236999768
0.8323259422212763 0.8323259422212763 0.8323259422212763
0.8341068858455867 0.8341068858455867 0.8341068858455867
0.83587011410504 0.83587011410504 0.83587011410504
0.8376159759116959 0.8376159759116959 0.8376159759116959
0.8393448099716732 0.8393448099716732 0.8393448099716732
0.8410569451792902 0.8410569451792902 0.8410569451792902
0.8427527009923641 0.8427527009923641 0.8427527009923641
0.8444323877897397 0.8444323877897397 0.8444323877897397
0.846096307212045 0.846096307212045 0.846096307212045
0.8477447524866123 0.8477447524866123 0.8477447524866123
0.8493780087374379 0.8493780087374379 0.8493780087374379
0.8509963532809985 0.8509963532809985 0.8509963532809985
0.8526000559086948 0.8526000559086948 0.8526000559086948
0.8541893791566363 0.8541893791566363 0.8541893791566363
0.8557645785634478 0.8557645785634478 0.8557645785634478
0.8573259029167245 0.8573259029167245 0.8573259029167245
0.8588735944887349 0.8588735944887349 0.8588735944887349
0.8604078892619254 0.8604078892619254 0.8604078892619254
0.8619290171447543 0.8619290171447543 0.8619290171447543
0.8634372021783489 0.8634372021783489 0.8634372021783489
0.8649326627344462 0.8649326627344462 0.8649326627344462
0.8664156117050593 0.8664156117050593 0.8664156117050593
0.8678862566842774 0.8678862566842774 0.8678862566842774
0.8693448001425915 0.8693448001425915 0.8693448001425915
0.8707914395941054 0.8707914395941054 0.8707914395941054
0.8722263677569853 0.8722263677569853 0.8722263677569853
0.873649772707467 0.873649772707467 0.873649772707467
0.875061838027732 0.875061838027732 0.875061838027732
0.876462742947942 0.876462742947942 0.876462742947942
0.8778526624827071 0.8778526624827071 0.8778526624827071
0.8792317675622455 0.8792317675622455 0.8792317675622455
0.880600225158484 0.880600225158484 0.880600225158484
0.881958198406329 0.881958198406329 0.881958198406329
0.8833058467203283 0.8833058467203283 0.8833058467203283
0.884643325906933 0.884643325906933 0.884643325906933
0.8859707882725584 0.8859707882725584 0.8859707882725584
0.8872883827276288 0.8872883827276288 0.8872883827276288
0.8885962548867851 0.8885962548867851 0.8885962548867851
0.889894547165423 0.889894547165423 0.889894547165423
0.8911833988727246 0.8911833988727246 0.8911833988727246
0.8924629463013306 0.8924629463013306 0.8924629463013306
0.8937333228138021 0.8937333228138021 0.8937333228138021
0.8949946589260046 0.8949946589260046 0.8949946589260046
0.89624708238755 0.89624708238755 0.89624708238755
0.8974907182594144 0.8974907182594144 0.8974907182594144
0.8987256889888547 0.8987256889888547 0.8987256889888547
0.8999521144817338 0.8999521144817338 0.8999521144817338
0.9011701121723601 0.9011701121723601 0.9011701121723601
0.9023797970909462 0.9023797970909462 0.9023797970909462
0.9035812819287812 0.9035812819287812 0.9035812819287812
0.9047746771012093 0.9047746771012093 0.9047746771012093
0.9059600908085034 0.9059600908085034 0.9059600908085034
0.9071376290947165 0.9071376290947165 0.9071376290947165
0.9083073959045932 0.9083073959045932 0.9083073959045932
0.9094694931386137 0.9094694931386137 0.9094694931386137
0.9106240207062476 0.9106240207062476 0.9106240207062476
0.9117710765774837 0.9117710765774837 0.9117710765774837
0.9129107568327044 0.9129107568327044 0.9129107568327044
0.9140431557109662 0.9140431557109662 0.9140431557109662
0.9151683656567493 0.9151683656567493 0.9151683656567493
0.9162864773652323 0.9162864773652323 0.9162864773652323
0.9173975798261481 0.9173975798261481 0.9173975798261481
0.9185017603662746 0.9185017603662746 0.9185017603662746
0.9195991046906097 0.9195991046906097 0.9195991046906097
0.9206896969222802 0.9206896969222802 0.9206896969222802
0.9217736196412312 0.9217736196412312 0.9217736196412312
0.9228509539217384 0.9228509539217384 0.9228509539217384
0.9239217793687893 0.9239217793687893 0.9239217793687893
0.9249861741533711 0.9249861741533711 0.9249861741533711
0.9260442150467062 0.9260442150467062 0.9260442150467062
0.927095977453471 0.927095977453471 0.927095977453471
0.9281415354440372 0.9281415354440372 0.9281415354440372
0.9291809617857657 0.9291809617857657 0.9291809617857657
0.9302143279733897 0.9302143279733897 0.9302143279733897
0.9312417042585174 0.9312417042585174 0.9312417042585174
0.9322631596782844 0.9322631596782844 0.9322631596782844
0.9332787620831848 0.9332787620831848 0.9332787620831848
0.9342885781641116 0.9342885781641116 0.9342885781641116
0.9352926734786282 0.9352926734786282 0.9352926734786282
0.9362911124765035 0.9362911124765035 0.9362911124765035
0.9372839585245297 0.9372839585245297 0.9372839585245297
0.938271273930649 0.938271273930649 0.938271273930649
0.9392531199674141 0.9392531199674141 0.9392531199674141
0.9402295568947998 0.9402295568947998 0.9402295568947998
0.9412006439823923 0.9412006439823923 0.9412006439823923
0.942166439530973 0.942166439530973 0.942166439530973
0.9431270008935169 0.9431270008935169 0.9431270008935169
0.9440823844956261 0.9440823844956261 0.9440823844956261
0.9450326458554158 0.9450326458554158 0.9450326458554158
0.945977839602869 0.945977839602869 0.945977839602869
0.9469180194986793 0.9469180194986793 0.9469180194986793
0.9478532384525954 0.9478532384525954 0.9478532384525954
0.9487835485412853 0.9487835485412853 0.9487835485412853
0.9497090010257339 0.9497090010257339 0.9497090010257339
0.9506296463681876 0.9506296463681876 0.9506296463681876
0.951545534248664 0.951545534248664 0.951545534248664
0.9524567135810336 0.9524567135810336 0.9524567135810336
0.9533632325286941 0.9533632325286941 0.9533632325286941
0.9542651385198423 0.9542651385198423 0.9542651385198423
0.9551624782623628 0.9551624782623628 0.9551624782623628
0.9560552977583391 0.9560552977583391 0.9560552977583391
0.9569436423182032 0.9569436423182032 0.9569436423182032
0.9578275565745301 0.9578275565745301 0.9578275565745301
0.958707084495493 0.958707084495493 0.958707084495493
0.9595822693979839 0.9595822693979839 0.9595822693979839
0.9604531539604125 0.9604531539604125 0.9604531539604125
0.9613197802351932 0.9613197802351932 0.9613197802351932
0.9621821896609274 0.9621821896609274 0.9621821896609274
0.9630404230742909 0.9630404230742909 0.9630404230742909
0.9638945207216357 0.9638945207216357 0.9638945207216357
0.9647445222703127 0.9647445222703127 0.9647445222703127
0.9655904668197248 0.9655904668197248 0.9655904668197248
0.966432392912117 0.966432392912117 0.966432392912117
0.9672703385431126 0.9672703385431126 0.9672703385431126
0.9681043411720001 0.9681043411720001 0.9681043411720001
0.96893443773178 0.96893443773178 0.96893443773178
0.9697606646389776 0.9697606646389776 0.9697606646389776
0.970583057803228 0.970583057803228 0.970583057803228
0.9714016526366389 0.9714016526366389 0.9714016526366389
0.9722164840629403 0.9722164840629403 0.9722164840629403
0.9730275865264224 0.9730275865264224 0.9730275865264224
0.9738349940006722 0.9738349940006722 0.9738349940006722
0.9746387399971097 0.9746387399971097 0.9746387399971097
0.975438857573334 0.975438857573334 0.975438857573334
0.9762353793412797 0.9762353793412797 0.9762353793412797
0.9770283374751919 0.9770283374751919 0.9770283374751919
0.977817763719424 0.977817763719424 0.977817763719424
0.9786036893960612 0.9786036893960612 0.9786036893960612
0.9793861454123779 0.9793861454123779 0.9793861454123779
0.980165162268128 0.980165162268128 0.980165162268128
0.9809407700626804 0.9809407700626804 0.9809407700626804
0.9817129985019935 0.9817129985019935 0.9817129985019935
0.9824818769054434 0.9824818769054434 0.9824818769054434
0.9832474342125014 0.9832474342125014 0.9832474342125014
0.9840096989892695 0.9840096989892695 0.9840096989892695
0.9847686994348754 0.9847686994348754 0.9847686994348754
0.9855244633877314 0.9855244633877314 0.9855244633877314
0.9862770183316601 0.9862770183316601 0.9862770183316601
0.9870263914018915 0.9870263914018915 0.9870263914018915
0.9877726093909316 0.9877726093909316 0.9877726093909316
0.9885156987543121 0.9885156987543121 0.9885156987543121
0.9892556856162155 0.9892556856162155 0.9892556856162155
0.9899925957749858 0.9899925957749858 0.9899925957749858
0.9907264547085257 0.9907264547085257 0.9907264547085257
0.9914572875795804 0.9914572875795804 0.9914572875795804
0.9921851192409145 0.9921851192409145 0.9921851192409145
0.9929099742403825 0.9929099742403825 0.9929099742403825
0.9936318768258963 0.9936318768258963 0.9936318768258963
0.9943508509502915 0.9943508509502915 0.9943508509502915
0.995066920276096 0.995066920276096 0.995066920276096
0.9957801081802024 0.9957801081802024 0.9957801081802024
0.996490437758446 0.996490437758446 0.996490437758446
0.9971979318300936 0.9971979318300936 0.9971979318300936
0.9979026129422405 0.9979026129422405 0.9979026129422405
0.9986045033741213 0.9986045033741213 0.9986045033741213
0.9993036251413379 0.9993036251413379 0.9993036251413379
1.0 1.0 1.0