luts/lut_arcsinh_stretch_445.cube
TITLE "Arcsinh_Stretch_445"
LUT_1D_SIZE 256
DOMAIN_MIN 0.0 0.0 0.0
DOMAIN_MAX 1.0 1.0 1.0
0.0 0.0 0.0
0.3835263937649653 0.3835263937649653 0.3835263937649653
0.46056948600645103 0.46056948600645103 0.46056948600645103
0.5056706308088926 0.5056706308088926 0.5056706308088926
0.5376760448595272 0.5376760448595272 0.5376760448595272
0.5625030916741989 0.5625030916741989 0.5625030916741989
0.58278896263137 0.58278896263137 0.58278896263137
0.5999407573183608 0.5999407573183608 0.5999407573183608
0.6147984986932346 0.6147984986932346 0.6147984986932346
0.62790406164948 0.62790406164948 0.62790406164948
0.6396274536687642 0.6396274536687642 0.6396274536687642
0.6502325954359948 0.6502325954359948 0.6502325954359948
0.6599143612263417 0.6599143612263417 0.6599143612263417
0.6688207435413034 0.6688207435413034 0.6688207435413034
0.677066780974019 0.677066780974019 0.677066780974019
0.6847436696140765 0.6847436696140765 0.6847436696140765
0.6919249280467143 0.6919249280467143 0.6919249280467143
0.6986706901646227 0.6986706901646227 0.6986706901646227
0.7050307691523242 0.7050307691523242 0.7050307691523242
0.7110468919859249 0.7110468919859249 0.7110468919859249
0.7167543601323454 0.7167543601323454 0.7167543601323454
0.7221833046595394 0.7221833046595394 0.7221833046595394
0.7273596491091654 0.7273596491091654 0.7273596491091654
0.7323058581638691 0.7323058581638691 0.7323058581638691
0.7370415268651296 0.7370415268651296 0.7370415268651296
0.7415838494730675 0.7415838494730675 0.7415838494730675
0.7459479963160595 0.7459479963160595 0.7459479963160595
0.7501474194818337 0.7501474194818337 0.7501474194818337
0.754194102888741 0.754194102888741 0.754194102888741
0.7580987684558641 0.7580987684558641 0.7580987684558641
0.7618710473075515 0.7618710473075515 0.7618710473075515
0.7655196228955417 0.7655196228955417 0.7655196228955417
0.7690523513911154 0.7690523513911154 0.7690523513911154
0.7724763635460813 0.7724763635460813 0.7724763635460813
0.7757981513434653 0.7757981513434653 0.7757981513434653
0.7790236420845642 0.7790236420845642 0.7790236420845642
0.7821582620368465 0.7821582620368465 0.7821582620368465
0.7852069913595261 0.7852069913595261 0.7852069913595261
0.7881744117029978 0.7881744117029978 0.7881744117029978
0.791064747624348 0.791064747624348 0.791064747624348
0.7938819027586405 0.7938819027586405 0.7938819027586405
0.7966294915231951 0.7966294915231951 0.7966294915231951
0.7993108670009181 0.7993108670009181 0.7993108670009181
0.8019291455422993 0.8019291455422993 0.8019291455422993
0.8044872285388186 0.8044872285388186 0.8044872285388186
0.8069878217492609 0.8069878217492609 0.8069878217492609
0.8094334525017322 0.8094334525017322 0.8094334525017322
0.8118264850455532 0.8118264850455532 0.8118264850455532
0.8141691342867957 0.8141691342867957 0.8141691342867957
0.8164634781074737 0.8164634781074737 0.8164634781074737
0.8187114684401104 0.8187114684401104 0.8187114684401104
0.8209149412455936 0.8209149412455936 0.8209149412455936
0.823075625522118 0.823075625522118 0.823075625522118
0.825195151455975 0.825195151455975 0.825195151455975
0.8272750578104491 0.8272750578104491 0.8272750578104491
0.8293167986367173 0.8293167986367173 0.8293167986367173
0.8313217493800632 0.8313217493800632 0.8313217493800632
0.8332912124456306 0.8332912124456306 0.8332912124456306
0.835226422280125 0.835226422280125 0.835226422280125
0.8371285500191155 0.8371285500191155 0.8371285500191155
0.8389987077437523 0.8389987077437523 0.8389987077437523
0.8408379523856399 0.8408379523856399 0.8408379523856399
0.8426472893141975 0.8426472893141975 0.8426472893141975
0.8444276756369948 0.8444276756369948 0.8444276756369948
0.8461800232401839 0.8461800232401839 0.8461800232401839
0.8479052015932124 0.8479052015932124 0.8479052015932124
0.8496040403394092 0.8496040403394092 0.8496040403394092
0.8512773316917677 0.8512773316917677 0.8512773316917677
0.8529258326512438 0.8529258326512438 0.8529258326512438
0.8545502670631172 0.8545502670631172 0.8545502670631172
0.8561513275253966 0.8561513275253966 0.8561513275253966
0.8577296771618644 0.8577296771618644 0.8577296771618644
0.8592859512711191 0.8592859512711191 0.8592859512711191
0.8608207588618798 0.8608207588618798 0.8608207588618798
0.8623346840838391 0.8623346840838391 0.8623346840838391
0.8638282875624762 0.8638282875624762 0.8638282875624762
0.8653021076454642 0.8653021076454642 0.8653021076454642
0.8667566615676059 0.8667566615676059 0.8667566615676059
0.8681924465406058 0.8681924465406058 0.8681924465406058
0.8696099407734246 0.8696099407734246 0.8696099407734246
0.8710096044284557 0.8710096044284557 0.8710096044284557
0.8723918805183056 0.8723918805183056 0.8723918805183056
0.8737571957475555 0.8737571957475555 0.8737571957475555
0.8751059613035004 0.8751059613035004 0.8751059613035004
0.8764385735995377 0.8764385735995377 0.8764385735995377
0.8777554149745633 0.8777554149745633 0.8777554149745633
0.8790568543514663 0.8790568543514663 0.8790568543514663
0.8803432478575556 0.8803432478575556 0.8803432478575556
0.8816149394095333 0.8816149394095333 0.8816149394095333
0.882872261265416 0.882872261265416 0.882872261265416
0.88411553454562 0.88411553454562 0.88411553454562
0.8853450697252557 0.8853450697252557 0.8853450697252557
0.8865611670995204 0.8865611670995204 0.8865611670995204
0.8877641172239306 0.8877641172239306 0.8877641172239306
0.8889542013310135 0.8889542013310135 0.8889542013310135
0.8901316917249499 0.8901316917249499 0.8901316917249499
0.8912968521555515 0.8912968521555515 0.8912968521555515
0.8924499381728642 0.8924499381728642 0.8924499381728642
0.8935911974635813 0.8935911974635813 0.8935911974635813
0.8947208701703828 0.8947208701703828 0.8947208701703828
0.8958391891952242 0.8958391891952242 0.8958391891952242
0.8969463804875367 0.8969463804875367 0.8969463804875367
0.8980426633182288 0.8980426633182288 0.8980426633182288
0.8991282505403225 0.8991282505403225 0.8991282505403225
0.9002033488369972 0.9002033488369972 0.9002033488369972
0.9012681589577638 0.9012681589577638 0.9012681589577638
0.9023228759434478 0.9023228759434478 0.9023228759434478
0.9033676893406071 0.9033676893406071 0.9033676893406071
0.9044027834059767 0.9044027834059767 0.9044027834059767
0.9054283373014931 0.9054283373014931 0.9054283373014931
0.9064445252804115 0.9064445252804115 0.9064445252804115
0.9074515168650017 0.9074515168650017 0.9074515168650017
0.9084494770162752 0.9084494770162752 0.9084494770162752
0.9094385662961688 0.9094385662961688 0.9094385662961688
0.9104189410225824 0.9104189410225824 0.9104189410225824
0.9113907534176481 0.9113907534176481 0.9113907534176481
0.9123541517495781 0.9123541517495781 0.9123541517495781
0.913309280468427 0.913309280468427 0.913309280468427
0.9142562803360743 0.9142562803360743 0.9142562803360743
0.9151952885507245 0.9151952885507245 0.9151952885507245
0.9161264388661957 0.9161264388661957 0.9161264388661957
0.9170498617062607 0.9170498617062607 0.9170498617062607
0.9179656842742796 0.9179656842742796 0.9179656842742796
0.9188740306583603 0.9188740306583603 0.9188740306583603
0.9197750219322594 0.9197750219322594 0.9197750219322594
0.9206687762522318 0.9206687762522318 0.9206687762522318
0.9215554089500209 0.9215554089500209 0.9215554089500209
0.9224350326221736 0.9224350326221736 0.9224350326221736
0.9233077572158529 0.9233077572158529 0.9233077572158529
0.9241736901113108 0.9241736901113108 0.9241736901113108
0.9250329362011768 0.9250329362011768 0.9250329362011768
0.9258855979667091 0.9258855979667091 0.9258855979667091
0.9267317755511465 0.9267317755511465 0.9267317755511465
0.9275715668302901 0.9275715668302901 0.9275715668302901
0.9284050674804455 0.9284050674804455 0.9284050674804455
0.9292323710438343 0.9292323710438343 0.9292323710438343
0.9300535689915964 0.9300535689915964 0.9300535689915964
0.9308687507844813 0.9308687507844813 0.9308687507844813
0.9316780039313332 0.9316780039313332 0.9316780039313332
0.9324814140454658 0.9324814140454658 0.9324814140454658
0.9332790648990154 0.9332790648990154 0.9332790648990154
0.9340710384753587 0.9340710384753587 0.9340710384753587
0.9348574150196814 0.9348574150196814 0.9348574150196814
0.9356382730877691 0.9356382730877691 0.9356382730877691
0.9364136895931 0.9364136895931 0.9364136895931
0.9371837398523072 0.9371837398523072 0.9371837398523072
0.9379484976290802 0.9379484976290802 0.9379484976290802
0.9387080351765654 0.9387080351765654 0.9387080351765654
0.9394624232783318 0.9394624232783318 0.9394624232783318
0.9402117312879563 0.9402117312879563 0.9402117312879563
0.9409560271672841 0.9409560271672841 0.9409560271672841
0.9416953775234198 0.9416953775234198 0.9416953775234198
0.9424298476444971 0.9424298476444971 0.9424298476444971
0.9431595015342742 0.9431595015342742 0.9431595015342742
0.9438844019456042 0.9438844019456042 0.9438844019456042
0.944604610412822 0.944604610412822 0.944604610412822
0.9453201872830879 0.9453201872830879 0.9453201872830879
0.9460311917467324 0.9460311917467324 0.9460311917467324
0.946737681866637 0.946737681866637 0.946737681866637
0.9474397146066857 0.9474397146066857 0.9474397146066857
0.9481373458593284 0.9481373458593284 0.9481373458593284
0.9488306304722824 0.9488306304722824 0.9488306304722824
0.94951962227441 0.94951962227441 0.94951962227441
0.9502043741007967 0.9502043741007967 0.9502043741007967
0.9508849378170655 0.9508849378170655 0.9508849378170655
0.9515613643429502 0.9515613643429502 0.9515613643429502
0.9522337036751566 0.9522337036751566 0.9522337036751566
0.9529020049095395 0.9529020049095395 0.9529020049095395
0.9535663162626135 0.9535663162626135 0.9535663162626135
0.9542266850924298 0.9542266850924298 0.9542266850924298
0.9548831579188342 0.9548831579188342 0.9548831579188342
0.9555357804431319 0.9555357804431319 0.9555357804431319
0.9561845975671799 0.9561845975671799 0.9561845975671799
0.9568296534119247 0.9568296534119247 0.9568296534119247
0.9574709913354059 0.9574709913354059 0.9574709913354059
0.9581086539502448 0.9581086539502448 0.9581086539502448
0.9587426831406347 0.9587426831406347 0.9587426831406347
0.9593731200788477 0.9593731200788477 0.9593731200788477
0.9600000052412799 0.9600000052412799 0.9600000052412799
0.9606233784240449 0.9606233784240449 0.9606233784240449
0.9612432787581331 0.9612432787581331 0.9612432787581331
0.9618597447241519 0.9618597447241519 0.9618597447241519
0.9624728141666594 0.9624728141666594 0.9624728141666594
0.9630825243081053 0.9630825243081053 0.9630825243081053
0.9636889117623914 0.9636889117623914 0.9636889117623914
0.9642920125480664 0.9642920125480664 0.9642920125480664
0.9648918621011633 0.9648918621011633 0.9648918621011633
0.9654884952876925 0.9654884952876925 0.9654884952876925
0.9660819464158034 0.9660819464158034 0.9660819464158034
0.9666722492476219 0.9666722492476219 0.9666722492476219
0.9672594370107767 0.9672594370107767 0.9672594370107767
0.9678435424096212 0.9678435424096212 0.9678435424096212
0.9684245976361657 0.9684245976361657 0.9684245976361657
0.9690026343807211 0.9690026343807211 0.9690026343807211
0.9695776838422723 0.9695776838422723 0.9695776838422723
0.9701497767385813 0.9701497767385813 0.9701497767385813
0.9707189433160337 0.9707189433160337 0.9707189433160337
0.9712852133592346 0.9712852133592346 0.9712852133592346
0.9718486162003609 0.9718486162003609 0.9718486162003609
0.9724091807282778 0.9724091807282778 0.9724091807282778
0.9729669353974286 0.9729669353974286 0.9729669353974286
0.9735219082365008 0.9735219082365008 0.9735219082365008
0.9740741268568773 0.9740741268568773 0.9740741268568773
0.9746236184608807 0.9746236184608807 0.9746236184608807
0.975170409849814 0.975170409849814 0.975170409849814
0.9757145274318024 0.9757145274318024 0.9757145274318024
0.9762559972294497 0.9762559972294497 0.9762559972294497
0.9767948448873032 0.9767948448873032 0.9767948448873032
0.9773310956791434 0.9773310956791434 0.9773310956791434
0.9778647745150968 0.9778647745150968 0.9778647745150968
0.9783959059485783 0.9783959059485783 0.9783959059485783
0.9789245141830709 0.9789245141830709 0.9789245141830709
0.979450623078743 0.979450623078743 0.979450623078743
0.979974256158911 0.979974256158911 0.979974256158911
0.9804954366163507 0.9804954366163507 0.9804954366163507
0.9810141873194613 0.9810141873194613 0.9810141873194613
0.9815305308182858 0.9815305308182858 0.9815305308182858
0.9820444893503933 0.9820444893503933 0.9820444893503933
0.9825560848466262 0.9825560848466262 0.9825560848466262
0.9830653389367141 0.9830653389367141 0.9830653389367141
0.9835722729547626 0.9835722729547626 0.9835722729547626
0.9840769079446149 0.9840769079446149 0.9840769079446149
0.984579264665094 0.984579264665094 0.984579264665094
0.9850793635951276 0.9850793635951276 0.9850793635951276
0.9855772249387559 0.9855772249387559 0.9855772249387559
0.9860728686300305 0.9860728686300305 0.9860728686300305
0.986566314337803 0.986566314337803 0.986566314337803
0.9870575814704088 0.9870575814704088 0.9870575814704088
0.9875466891802481 0.9875466891802481 0.9875466891802481
0.9880336563682652 0.9880336563682652 0.9880336563682652
0.9885185016883318 0.9885185016883318 0.9885185016883318
0.9890012435515342 0.9890012435515342 0.9890012435515342
0.9894819001303694 0.9894819001303694 0.9894819001303694
0.9899604893628486 0.9899604893628486 0.9899604893628486
0.9904370289565146 0.9904370289565146 0.9904370289565146
0.9909115363923737 0.9909115363923737 0.9909115363923737
0.9913840289287423 0.9913840289287423 0.9913840289287423
0.991854523605014 0.991854523605014 0.991854523605014
0.9923230372453472 0.9923230372453472 0.9923230372453472
0.9927895864622739 0.9927895864622739 0.9927895864622739
0.9932541876602351 0.9932541876602351 0.9932541876602351
0.9937168570390412 0.9937168570390412 0.9937168570390412
0.994177610597262 0.994177610597262 0.994177610597262
0.994636464135545 0.994636464135545 0.994636464135545
0.9950934332598681 0.9950934332598681 0.9950934332598681
0.9955485333847238 0.9955485333847238 0.9955485333847238
0.9960017797362385 0.9960017797362385 0.9960017797362385
0.9964531873552306 0.9964531873552306 0.9964531873552306
0.9969027711002036 0.9969027711002036 0.9969027711002036
0.9973505456502827 0.9973505456502827 0.9973505456502827
0.997796525508089 0.997796525508089 0.997796525508089
0.9982407250025589 0.9982407250025589 0.9982407250025589
0.9986831582917062 0.9986831582917062 0.9986831582917062
0.9991238393653296 0.9991238393653296 0.9991238393653296
0.9995627820476677 0.9995627820476677 0.9995627820476677
1.0 1.0 1.0